!!!!SEGMENT: 049-1-BH.krn
!!!COM: Chopin, Fryderyk
!!!OTL: Fantaisie
!!!OPS: Op. 49
!!!NIFC-rismID: 1001025441
!!!OMD: Marcia. Grave.
!!!filter: slurcheck
**kern	**kern	**fing	**dynam
*part2	*part1	*	*part1
*staff2	*staff1	*	*
*I"PIANO.	*	*	*
*clefF4	*clefG2	*	*
*k[b-e-a-d-]	*k[b-e-a-d-]	*	*
*M4/4	*M4/4	*	*
*met(c)	*met(c)	*	*
=1	=1	=1	=1
!	!	!	!LO:DY:rj
4FF'<	4F<'>	.	p
8CC'<L	8C<'>L	.	.
16rCC	16rC<	.	.
(<16FFJk	(>16F<J	.	.
4EE-	4E-<	.	.
8BBB-L)	8BB-<L)	.	.
16rBBB	16rC<	.	.
(<16EE-Jk	(>16E-<Jk	.	.
=2	=2	=2	=2
4DD-	4D-<	.	.
8AAA-L)	8AA-<L)	.	.
16rAAA	16rC<	.	.
(<16DD-Jk	(>16D-<Jk	.	.
*ped	*	*	*
2CC)	2C<)	.	.
=3	=3	=3	=3
*	*^	*	*
4c 4G 4C	(>4cc/ 4b-/ 4en/	2ryy	.	.
8.cL 8.G 8.C	8.ccL> 8.b- 8.e	.	.	.
16cJk 16G 16C	16ccJk 16e	.	.	.
*Xped	*	*	*	*
!	!LO:N:vis=8	!	!	!
4c 4A- 4C	8.dd-L	4f	.	.
.	[16cck	.	.	.
8.f>L 8.c>	8.ff 8.cc] 8.a-	4ryy	.	.
16f>Jk 16c>	16aa-Jk 16cc 16a-	.	.	.
=4	=4	=4	=4	=4
*^	*	*^	*	*
*	*^	*	*	*	*	*
2ryy	4en> 4c>	2ryy	4gg 4cc 4b-	2ryy	2ryy	.	.
.	4g> 4c>	.	4cc 4b-	.	.	.	.
4g/	4..c	[<2F\	4gg	4..cc	[<2a-\	.	>
[>4f/	.	.	[>4ff	.	.	.	.
.	16d-	.	.	16dd-	.	.	]]
*	*v	*v	*	*	*	*	*
*v	*v	*	*	*	*	*
*	*v	*v	*	*	*
*	*v	*v	*	*
!!LO:LB:g=original
=5	=5	=5	=5
*	*^	*	*
4f\] 4c\ 4F\]	4ff]	4cc 4a-])	.	.
8CC'<L	8C<'>L	4ryy	.	.
16rDD	16rE<	.	.	.
(<16FFJk	(>16F<Jk	.	.	.
4EE-	4E-<	4ryy	.	.
8BBB-'<L)	8BB-<'>L)	4ryy	.	.
16rCC	16rC<	.	.	.
(<16EE-Jk	(>16E-<Jk	.	.	.
*	*v	*v	*	*
=6	=6	=6	=6
4DD-	4D-<	.	.
8AAA-'<L)	8AA-<'>L)	.	.
16rBBB	16rAA<	.	.
(<16DD-Jk	(>16D-<Jk	.	.
4CC	4C<	.	.
8AAA-'<L)	8AA-<'>L)	.	.
16rGGG	16rBB<	.	.
(<16FFFJk	(>16FF<Jk	.	.
=7	=7	=7	=7
*	*^	*	*
*ped	*	*	*	*
4EEE-'<\)	4EE-<'>/)	4ryy	.	.
.	.	.	.	.
8.e-L< 8.B- 8.E-	(>8.ee-L< 8.dd- 8.g	4ryy	.	.
16e-Jk 16B- 16E-	16ee-Jk 16g	.	.	.
4e-\ 4c\ 4E-\	8.ffL	4a-	.	.
.	[>16ee-k	.	.	.
*Xped	*	*	*	*
8.e-L< 8.c 8.E-	8.ee-] 8.aa- 8.a-	4ryy	.	.
16a->Jk 16e->	16cccJk 16ee- 16cc	.	.	.
*	*v	*v	*	*
=8	=8	=8	=8
*	*^	*	*
4g 4e-	2ryy	4bb- 4ee- 4dd-	.	.
4e- 4B- 4E-	.	4ee- 4dd- 4g	.	.
4e- 4c 4E-	4aa-	4cc 4a-	.	.
8.E-L> 8.EE-	8.ggL	4cc 4a-	.	.
16E-Jk 16EE-	16ffJk	.	.	.
=9	=9	=9	=9	=9
4E-/ 4EE-/	4ff	2dd- 2g	.	<
8.E-L> 8.EE-	4ee-)	.	.	.
16E-Jk 16EE-	.	.	.	.
.	(>8qc/	.	.	.
8.FL< 8.FF	4ryy	(>4ee-\ 4a-\ 4c\)	.	.
16E-k 16EE-	.	.	.	.
.	8qee-/	.	.	.
!	!	!LO:TX:t=P:arpeggio before 8qee-:problem	!	!
8.A- 8.AA-	8.dd-:L	4a-: 4e-:	.	.
16cJk 16C	[>16ccJk	.	.	[[
!!LO:LB:g=original
=10	=10	=10	=10	=10
4B-\ 4BB-\	[4ee- 4cc_>	2g 2e- 2d-	.	.
!	!LO:TUP:b	!	!	!
4E-/ 4EE-/	12ee-L] 12cc]	.	.	.
.	12b-	.	.	.
.	12ccJ	.	.	.
4A- 4AA-\	4a- 4c	4ryy	.	.
!	!LO:TX:t=P:4cc 4en 4B- before 12a-:problem	!LO:TUP:a	!	!
4C/ 4CC/	4cc 4en 4B-	12a-L	.	.
.	.	12.g	.	.
.	.	24fJk	.	.
*	*v	*v	*	*
=11	=11	=11	=11
4FF\ 4F\	4f 4A-<)	.	.
8CC'<L	8C<'>L	.	.
16rAAA	16rE<	.	.
(<16FFJk 16FFF	(>16F<J	.	.
4EE- 4EEE-	4E-<	.	.
8BBB-'<L)	8BB-<'>L)	.	.
16rAAA	16rC<	.	.
(<16EE-Jk 16EEE-	(>16E-<Jk	.	.
=12	=12	=12	=12
4DD- 4DDD-	4D-<	.	.
8AAA-'<L)	8AA-<'>L)	.	.
16rFFF	16rC<	.	.
(<16DD-Jk 16DDD-	(>16D-<Jk	.	.
*ped	*	*	*
2CC 12CCC)	2C<)	.	.
=13	=13	=13	=13
*	*^	*	*
4c 4G 4C	(>4cc/ 4b-/ 4en/	2ryy	.	.
8.cL 8.G 8.C	8.ccL> 8.b- 8.e	.	.	.
16cJk 16G 16C	16ccJk 16e	.	.	.
*Xped	*	*	*	*
4c 4A- 4C	8.dd-L	4f	.	.
.	[16cck	.	.	.
8.f>L 8.c>	8.ff 8.cc] 8.a-	4ryy	.	.
16f>Jk 16c>	16aa-Jk 16cc 16a-	.	.	.
!!LO:LB:g=original
=14	=14	=14	=14	=14
*^	*	*^	*	*
*	*^	*	*	*	*	*
2ryy	4en> 4c>	2ryy	4gg 4cc 4b-	2ryy	2ryy	.	.
.	4g> 4c>	.	4cc 4b-	.	.	.	.
4g/	4..c	[<2F\	4gg	4..cc	2a-\	.	>
[>4f/	.	.	[>4ff	.	.	.	.
.	16d-	.	.	16dd-	.	.	]]
*	*v	*v	*	*	*	*	*
*v	*v	*	*	*	*	*
*	*	*v	*v	*	*
*	*v	*v	*	*
=15	=15	=15	=15
*	*^	*	*
4f\] 4c\ 4F\]	4ff]	4cc 4a-)	.	.
8CC'<L	8C<'>L	4ryy	.	.
16rCC	16rE<	.	.	.
(<16FFJk	(>16F<Jk	.	.	.
4EE-	4E-<	4ryy	.	.
8BBB-'<L)	8BB-<'>L)	4ryy	.	.
16rCC	16rC<	.	.	.
(<16EE-Jk	(>16E-<Jk	.	.	.
*	*v	*v	*	*
=16	=16	=16	=16
4DD-	4D-<	.	.
8AAA-'<L)	8AA-<'>L)	.	.
16rCC	16rC<	.	.
(<16DD-Jk	(>16D-<Jk	.	.
*ped	*	*	*
!LO:TX:i:t=ten.	!	!	!
2CC-)	2C-<)	.	.
=17	=17	=17	=17
*	*^	*	*
4Bn 4F#X 4BBn	(>4bn/ 4an/ 4d#X/	2rAyy	.	.
8.BL 8.F# 8.BB	8.bL> 8.a 8.d#	.	.	.
16BJk 16F# 16BB	16bJk 16d#	.	.	.
*Xped	*	*	*	*
4B 4G#X 4BB	8.cc#XL	4en	.	.
.	16bk	.	.	.
8.BL 8.BB	8.een 8.b 8.g#X 8.e	4rcyy	.	.
16enJk 16B	16gg#Jk 16b 16g#	.	.	.
*	*v	*v	*	*
!!LO:PB:g=original
=18	=18	=18	=18
4d#X 4Bn	4ff#X 4bn 4an	.	.
4B 4F#X 4BBn	4b/ 4a/ 4d#X/	.	<
.	(8qa-X/	.	.
*ped	*	*	*
4A-X:/ 4C-X:/ 4FF-X:/	4ccc-X 4ddn 4a-y)	.	.
.	.	.	[<
8.B-iL<	8.bb-XL 8.dd 8.b-X	.	.
16c-XJk	16aa-Jk 16dd 16a-	.	.
*Xped	*	*	*
=19	=19	=19	=19
4e- 4cn 4A- 4E-	4cccn 4aa- 4ee- 4cc)	.	.
4en 4c 4G 4En	(8.cccL 8.gg 8.cc	.	.
.	16bb-Jk 16b-	.	.
4f 4c 4F	8.bb-L 8.ff 8.cc 8.b-	.	.
.	16aa-k 16a-	.	.
*ped	*	*	*
4BB-/ 4BBB-/	8ffJ 8dd-X 8f)	.	.
.	16r	.	.
*Xped	*	*	*
.	(>[<16g-X 16d- 16G-X<	.	.
=20	=20	=20	=20
*	*^	*	*
*ped	*	*	*	*
4GG-X/ 4GGG-X/	4b- 4g-X] 4d- 4B-	2.ryy	.	.
4C 4CC	4en 4c< 4B-< 4Gn<	.	.	.
*Xped	*	*	*	*
.	.	.	.	.
*ped	*	*	*	*
4FF'</ 4FFF/	2f^>)	.	.	.
*Xped	*	*	*	*
!	!	!	!	!LO:DY:rj
4F 4C	.	4c< 4An<	.	p
=21	=21	=21	=21	=21
*ped	*	*	*	*
4DDn'</	(>4an	4rA	.	.
4G'</ 4Dn/ 4GG/	8.aL	4f 4Bn	.	.
*Xped	*	*	*	*
.	16aJk	.	.	.
*ped	*	*	*	*
4CC'</	4.a	4ryy	.	.
4G'>\ 4C\	.	4en 4B-X	.	.
*Xped	*	*	*	*
.	8g	.	.	.
!!LO:LB:g=original
=22	=22	=22	=22	=22
*ped	*	*	*	*
4Dn\ 4DDn\	8fL	4c< 4An<	.	.
.	16r	.	.	.
*Xped	*	*	*	*
.	16gk	.	.	.
*ped	*	*	*	*
4GG'</ 4GGG/	8.an	4f 4Bn	.	.
*Xped	*	*	*	*
.	16bnJk	.	.	.
*ped	*	*	*	*
4CC'</ 4CCC/	4cc 4en	2rcyy	.	.
4c'>\ 4En\	4g)	.	.	.
*Xped	*	*	*	*
=23	=23	=23	=23	=23
*ped	*	*	*	*
4FF'</	(>4g	4r	.	.
4c'>\ 4F\	8.gL	4e-X 4An	.	.
*Xped	*	*	*	*
.	.	.	.	.
.	16gJk	.	.	.
*ped	*	*	*	*
4BBB-'</	4.g	4r	.	.
4B-'>\ 4F\ 4BB-\	.	4dn 4A-X	.	.
*Xped	*	*	*	*
.	8f	.	.	.
=24	=24	=24	=24	=24
*ped	*	*	*	*
4C'>\ 4CC\	8e-L	4B-< 4G<	.	.
.	16r	.	.	.
*Xped	*	*	*	*
.	16fk	.	.	.
*ped	*	*	*	*
4FF'</ 4FFF/	8.g	4e- 4An	.	.
*Xped	*	*	*	*
.	16anJk	.	.	.
*ped	*	*	*	*
4BB-'</ 4BBB-/	4b- 4dn 4B-	2ryy	.	.
4B-'> 4Dn	4f)	.	.	.
*Xped	*	*	*	*
=25	=25	=25	=25	=25
*ped	*	*	*	*
4DD-X'</	(>4f	4r	.	.
!	!LO:N:n=2:vis=8	!	!	!
!	!LO:N:n=3:vis=8	!	!	!
4A-'> 4D- 4AA-	8.fL 8.d-X 8.F<	4ryy	.	.
*Xped	*	*	*	*
.	16fJk	.	.	.
*ped	*	*	*	*
4AAA-'</	4.f	4r	.	.
!	!	!LO:TX:t=P:4c 4G-X before 4A- 4E- 4AA-:problem	!	!
4A-'<\ 4E-\ 4AA-\	.	4c< 4G-X<	.	.
*Xped	*	*	*	*
.	8e-	.	.	.
=26	=26	=26	=26	=26
*ped	*	*	*	*
4DD-'>\	(>8d-L 8F<)	8ryy	.	<
.	16rd	16rA<	.	.
.	16e-k 16A-<	16ryy	.	.
4A-'>\ 4D-\ 4AA-\	8.f 8.d-	4ryy	.	.
*Xped	*	*	*	*
.	16b-Jk 16B-	.	.	.
*ped	*	*	*	*
4AAA-'</	4.a-:	2c:	.	[[
4A-'>\ 4E-\ 4AA-\	.	.	.	.
*Xped	*	*	*	*
.	8g-X	.	.	.
!!LO:LB:g=original
=27	=27	=27	=27	=27
*ped	*	*	*	*
4DD-'</	8.fL	4d-	.	.
.	16g-Xk	.	.	.
4F'>\ 4D-\	8.gn	8.cL	.	.
*Xped	*	*	*	*
.	16a-Jk	16BnJk	.	.
*ped	*	*	*	*
4CC'</	8anL 8f 8An	2ryy	.	.
.	16r	.	.	.
.	16b- 16gn	.	.	>
4f'>\ 4c\ 4An\	8bn 8g#X	.	.	.
.	16r	.	.	.
*Xped	*	*	*	*
.	16ccJk 16a	.	.	.
*	*v	*v	*	*
=28	=28	=28	=28
.	[8qcc 8qan/	.	.
*ped	*	*	*
4C'</	4aan 4cc])	.	.
*Xped	*	*	*
4en'>\ 4c\ 4G\	(4gg 4b-	.	.
*ped	*	*	*
4FF'</	4ff 4any	.	.
4f'>\ 4c\ 4F\	(>4a^>)	.	]]
*Xped	*	*	*
=29	=29	=29	=29
*	*^	*	*
*ped	*	*	*	*
4DDn'</	4an	4rA	.	.
4dn'>\ 4G\ 4Dn\	8.aL	4f 4Bn	.	.
*Xped	*	*	*	*
.	16aJk	.	.	.
*ped	*	*	*	*
4CC'</	4.a	4rA	.	.
4c'>\ 4G\ 4C\	.	4en 4B-X	.	.
*Xped	*	*	*	*
.	8g	.	.	.
=30	=30	=30	=30	=30
*ped	*	*	*	*
4Dn'<\ 4DDn\	8fL	4c< 4An<	.	.
.	16rg	.	.	.
*Xped	*	*	*	*
.	16gk	.	.	.
*ped	*	*	*	*
4GG'</ 4GGG/	8.an	4f 4Bn	.	.
*Xped	*	*	*	*
.	16bnJk	.	.	.
*ped	*	*	*	*
4CC'</ 4CCC/	4cc 4en	2ryy	.	.
4c'>\ 4En\	4g)	.	.	.
*Xped	*	*	*	*
=31	=31	=31	=31	=31
*ped	*	*	*	*
4FF'</	(4g	4rA	.	.
4c'>\ 4F\	8.gL	4e-X 4An	.	.
*Xped	*	*	*	*
.	16gJk	.	.	.
*ped	*	*	*	*
4BBB-'</	4.g	4ryy	.	.
4B-'> 4F 4BB-	.	4dn 4A-X	.	.
*Xped	*	*	*	*
.	8f	.	.	.
!!LO:LB:g=original
=32	=32	=32	=32	=32
*ped	*	*	*	*
4C'<\ 4CC\	8e-L	4B-< 4G<	.	.
.	16rf	.	.	.
*Xped	*	*	*	*
.	16fk	.	.	.
*ped	*	*	*	*
4FF'</ 4FFF/	8.g	4e- 4An	.	.
*Xped	*	*	*	*
.	16anJk	.	.	.
*ped	*	*	*	*
4BB-'</ 4BBB-/	4b- 4dn 4B-	2ryy	.	.
4B-'>\ 4Dn\	4f	.	.	.
*Xped	*	*	*	*
=33	=33	=33	=33	=33
*ped	*	*	*	*
4DD-X'>\	(>4f)	4rG<	.	.
!	!	!LO:TX:t=P:4d- 4F before 4A- 4D-:problem	!	!
4A-'<\ 4D-\	8.fL	4d-X< 4F<	.	.
*Xped	*	*	*	*
.	.	.	.	.
.	16fJk	.	.	.
*ped	*	*	*	*
4AAA-'<\	4.f	4rG<	.	.
!	!	!LO:TX:t=P:4c 4G-X before 4A- 4E- 4AA-:problem	!	!
4A-'<\ 4E-\ 4AA-\	.	4c< 4G-X<	.	.
*Xped	*	*	*	*
.	8e-	.	.	.
=34	=34	=34	=34	=34
*ped	*	*	*	*
4DD-'>\	8d-L 8F<	8ryy	.	.
.	16rg	16rA<	.	.
.	16e-k 16A-<	16ryy	.	.
*Xped	*	*	*	*
4A-'>\ 4D-\	8.f 8.d-	4ryy	.	.
.	16b-Jk 16B-	.	.	.
*ped	*	*	*	*
4AAA-'</	4.a-:	2c:	.	.
4A-'>\ 4E-\ 4AA-\	.	.	.	.
*Xped	*	*	*	*
.	8g-X	.	.	.
=35	=35	=35	=35	=35
*ped	*	*	*	*
4DD-'</	8.fL	4d-	.	.
.	16g-Xk	.	.	.
4F'>\ 4D-\	8.gn	8.cL	.	.
*Xped	*	*	*	*
.	.	.	.	.
.	16a-Jk	16BnJk	.	.
*ped	*	*	*	*
4CC'</	8anL 8f 8An	2ryy	.	.
.	16r	.	.	.
.	16b-k 16g	.	.	.
4f'>\ 4c\ 4An\	8bn 8g#X	.	.	.
*Xped	*	*	*	*
.	16r	.	.	.
.	16ccJk 16a	.	.	.
*	*v	*v	*	*
=36	=36	=36	=36
.	[8qcc 8qan/	.	.
*ped	*	*	*
4C'</	4aan 4cc])	.	.
4en [4c 4G	(4gg 4b-	.	.
*Xped	*	*	*
4f 4c] 4F	4ff 4any)	.	.
4r	4r	.	.
!!LO:PB:g=original
=37	=37	=37	=37
*ped	*	*	*
!	!LO:S:s=1:note:problem:note-level slur	!	!
2BB-\ 2BBB-\	(>2g 2d- 2G< 2F<	.	>
!	!LO:S:s=1:note:problem:note-level slur	!	!
8D-L< 8DD-	8fL 8B- 8G< 8F<)	.	.
16rDD	16rd	.	.
16D-Jk 16DD-	16f'>Jk 16B- 16G< 16F<	.	.
8D-\ 8DD-\	8f'> 8B- 8G< 8F<	.	]]
*Xped	*	*	*
8rCC	8r	.	.
=38	=38	=38	=38
*ped	*	*	*
4C 4CC	4c<'> 4G< 4F<	.	.
*Xped	*	*	*
.	.	.	.
*ped	*	*	*
4C 4CC	4c<'> 4G< 4En<	.	.
*Xped	*	*	*
.	.	.	.
*ped	*	*	*
4C 4FF	4c<'> 4An< 4F<	.	.
*Xped	*	*	*
4rGG	4rA<	.	.
=39	=39	=39	=39
*ped	*	*	*
(2BB-\ (2BBB-\	2g 2d- 2G< 2F<	.	>
8D-L<) 8DD-)	8fL 8B-< 8G< 8F<	.	.
16rDD	16rf	.	.
16D-Jk 16DD-	16f'>Jk 16B-< 16G< 16F<	.	.
8D-\ 8DD-\	8f'> 8B-< 8G< 8F<	.	]]
*Xped	*	*	*
.	.	.	.
8rC	8r	.	.
=40	=40	=40	=40
4rCC	4rA<	.	.
4C\ 4CC\	4c<'> 4G< 4F<	.	.
4rFF	4rA<	.	.
4C\ 4CC\	4c<'> 4G< 4En<	.	.
=41	=41	=41	=41
*ped	*	*	*
(4FF\ 4FFF\	(>2c< 2An< 2F< 2C<	.	.
8CCL<)	.	.	.
*Xped	*	*	*
16rDD	.	.	.
16FF'>Jk	.	.	.
*ped	*	*	*
(4FF\ 4FFF\	2d-< 2B-< 2F< 2D-<	.	.
8DD-L<)	.	.	.
16rDD	.	.	.
*Xped	*	*	*
16FF'>Jk	.	.	.
!!LO:LB:g=original
=42	=42	=42	=42
*	*^	*	*
*ped	*	*	*	*
!	!	!LO:TX:a:i:t=poco_a_poco:dur=16q:ext=ud:problem:text with extention lines	!	!
(4FF 4FFF	2c< 2An< 2F< 2C<	4ra	.	.
8CCL)	.	4ryy	.	.
16rDD	.	.	.	.
*Xped	*	*	*	*
16FF'>Jk	.	.	.	.
*ped	*	*	*	*
(4FF 4FFF	2d-< 2B-< 2F< 2D-<)	2ryy	.	.
8DD-L)	.	.	.	.
!LO:TX:t=P:here the slur ends, problem with N:problem	!	!	!	!
16rDD	.	.	.	.
16FF'>Jk	.	.	.	.
*Xped	*	*	*	*
*	*v	*v	*	*
=43||	=43||	=43||	=43||
*M2/2	*M2/2	*	*
*met(c|)	*met(c|)	*	*
*^	*^	*	*
*	*	*	*^	*	*
*Xtuplet	*	*Xtuplet	*Xtuplet	*	*	*
*ped	*tuplet	*	*	*	*	*
!	!LO:TUP:a	!	!	!	!	!
12ryy	12FFFL	4r	6rcyy	4ryy	.	p
!LO:TX:a:t=P:beginning of the slur that ends by (>4c] 4A-<]N) in m.45:problem 	!	!	!	!	!	!
[<6FF	12FF	.	.	.	.	.
.	[>12CJ	.	12C</	.	.	.
*	*Xtuplet	*tuplet	*	*	*	*
!	!	!LO:TUP:a	!	!	!	!LO:HP:a
2ryy	2.C_ [2.FF]	12F<L	2rDyy	4ryy	.	<
.	.	12G<	.	.	.	.
.	.	12B-<J	.	.	.	.
*	*	*Xtuplet	*	*	*	*
.	.	12A-<L	.	12ryy	.	.
.	.	12G<	.	12ryy	.	.
.	.	12F<J	.	[[<6.F<\	.	.
4ryy	.	12A-<L	[4A-<\	.	.	.
.	.	12B-<	.	.	.	.
*Xped	*	*	*	*	*	*
.	.	12d-J	.	12ryy	.	[
*v	*v	*	*	*	*	*
*	*	*v	*v	*	*
=44	=44	=44	=44	=44
1C;<] 1FF]	[1c; 1A-<_>	[>1F<]]	.	.
=45	=45	=45	=45	=45
*^	*	*	*	*
*	*	*	*^	*	*
*ped	*	*	*	*	*	*
!	!	!	!LO:TX:t=P:mixed beam:problem	!	!	!
12ryy	12AAA-L	(>4c] 4A-<]N)	12F<L\]	4ryy	.	.
!LO:N:vis=6.	!	!	!	!	!	!
[<6AA-	12AA-	.	12AA-</	.	.	.
.	[12E-J	.	12E-<J/	.	.	.
4ryy	2.E-_ 2.AA-_	12A-<L	2ryy	4ryy	.	<
.	.	12B-<	.	.	.	.
.	.	12d-<J	.	.	.	.
2ryy	.	12c<L	.	12ryy	.	.
.	.	12B-<	.	12ryy	.	.
.	.	12A-<J	.	[[<6.A-<\	.	.
.	.	12c<L	N[4c<\	.	.	.
.	.	12d-	.	.	.	.
*Xped	*	*	*	*	*	*
.	.	12fJ	.	12ryy	.	[[
*v	*v	*	*	*	*	*
*	*	*v	*v	*	*
!!LO:LB:g=original
=46	=46	=46	=46	=46
1E-;<] 1AA-]	[>1e-; [>1cN]	[>1A-<]]	.	.
=47	=47	=47	=47	=47
*^	*	*	*	*
*	*	*	*^	*	*
*ped	*	*	*	*	*	*
12ryy	12CCL	4e-] 4c])	(12A-<L]	4ryy	.	.
[<6C	12C	.	12C<	.	.	.
.	[12GJ	.	12G<J	.	.	.
!	!	!	!	!LO:TX:a:i:t=doppio movimento.	!	!
2.ryy	2.G] 2.C]	12cL	2ryy	4c\	.	.
!	!	!	!	!LO:TX:b:i:t=cresc. _:problem:dynamics with extention lines	!	!
!	!	!	!	!	!	!LO:HP:i:t=cresc.
.	.	12dn	.	.	.	<
.	.	12fJ	.	.	.	.
.	.	12e-L	.	12ryy	.	.
.	.	12d	.	12ryy	.	.
.	.	12cJ	.	[[<6.c\	.	.
.	.	12e-L	[<4e-	.	.	.
*Xped	*	*	*	*	*	*
.	.	12f	.	.	.	.
.	.	12a-J	.	12ryy	.	.
*	*	*	*v	*v	*	*
=48	=48	=48	=48	=48	=48
*	*	*	*^	*	*
!	!	!	!LO:TX:t=P:problem:mixed beam	!	!	!
12ryy	12EE-L	4g 4e-])	12cL\]]	4ryy	.	.
[>6E-	12E-	.	&(>12E-</	.	.	.
.	[>12B-J	.	12B-<J/	.	.	.
2.ryy	2.B-] 2.E-]	12e-L	2ryy	4ryy	.	.
.	.	12f	.	.	.	.
.	.	12a-J	.	.	.	.
.	.	12gL	.	12ryy	.	.
.	.	12f	.	12ryy	.	.
.	.	12e-J	.	[[<6.e->\	.	.
.	.	12gL	[<4g	.	.	.
.	.	12a-	.	.	.	.
.	.	12ccJ	.	12ryy	.	.
*	*	*	*v	*v	*	*
=49	=49	=49	=49	=49	=49
*	*	*	*^	*	*
*ped	*	*	*	*	*	*
12ryy	12GGL	4b- 4g]&)	12e-L\]]	4ryy	.	[
[<6G	12G	.	(>12G</	.	.	.
.	[<12dnJ	.	12dn<J/	.	.	.
2.ryy	2.d] 2.G]	12gL	2ryy	4ryy	.	.
.	.	12an	.	.	.	.
.	.	12ccJ	.	.	.	.
.	.	12b-L	.	12ryy	.	.
.	.	12a	.	12ryy	.	.
.	.	12gJ	.	[[<6.g>\	.	.
.	.	12b-L	[4b-	.	.	.
.	.	12cc	.	.	.	.
.	.	12ee-J	.	12ryy	.	.
*	*	*	*v	*v	*	*
!!LO:LB:g=original
=50	=50	=50	=50	=50	=50
!	!	!	!LO:TX:t=P:mixed beamm:problem	!	!
12ryy	12BB-L	4ddn 4b-])	12gL]]\	.	.
!LO:TX:t=P:6A- and 12A-X are one note:problem	!	!	!	!	!
[<6A-	12A-	.	(12A-X</	.	.
.	[>12fJ	.	12f<J/	.	.
2.ryy	4f] 4A-_>	12b-L>	4ryy	.	.
.	.	12cc	.	.	.
.	.	12ee-J	.	.	.
!	!	!	!LO:TX:t=P:diminuendolike accent:problem	!	!
.	2B- 2A-]	12ddL	4.f^< 4.dn	.	.
.	.	12cc	.	.	.
.	.	12b-J	.	.	.
.	.	12ddL	.	.	.
.	.	12ee-	.	.	.
.	.	.	8g 8e-	.	.
.	.	12ggJ	.	.	.
*v	*v	*	*	*	*
=51	=51	=51	=51	=51
*ped	*	*	*	*
!	!	!LO:TX:t=P:diminuendolike accent:problem	!	!
2B- 2A-	12ffL	4.f^< 4.dn	.	.
.	12ddn	.	.	.
.	12b-J	.	.	.
.	12ccL	.	.	.
.	12ee-	.	.	.
*Xped	*	*	*	*
.	.	8g 8e-	.	.
.	12ggJ	.	.	.
*ped	*	*	*	*
!	!	!LO:TX:t=P:diminuendolike accent:problem	!	!
N[2B- N[>2A-	12ffL	4.f^< 4.d	.	.
.	12dd	.	.	.
.	12b-J	.	.	.
.	12ccL	.	.	.
.	12ee-	.	.	.
.	.	8g 8e-	.	.
.	12ggJ	.	.	.
=52	=52	=52	=52	=52
*^	*	*	*	*
*Xped	*	*	*	*	*
4B-/]	4A-\]	4ff'> 4ddn)	4f\ 4dn\	.	.
2.ryy	4ryy	2.ryy	4r	.	.
!	!	!	!	!	!LO:DY:rj
*ped	*	*	*	*	*
.	4b-^> 4B-	.	4bbb-^> 4bb-	.	ff
.	4B-^> 4BB-	.	4bb-^> 4b-	.	.
*	*	*v	*v	*	*
*v	*v	*	*	*
=53	=53	=53	=53
1BB-;> 1BBB-	1b-;>^< 1B-	.	.
*Xped	*	*	*
!!LO:PB:g=original
=54	=54	=54	=54
*^	*^	*	*
*	*	*	*^	*	*
*ped	*	*	*	*	*	*
12ryy	N(>12EEE-L	4ryy	12ryy	4ryy	.	p
[<6EE-	12EE-	.	12ryy	.	.	.
.	[12BB-J	.	12BB-</	.	.	.
!	!	!	!	!	!	!LO:HP:b=2
2.ryy	2.BB-_ 2.EE-_	12E-<L	2ryy	4ryy	.	<
.	.	12F<	.	.	.	.
.	.	12A-<J	.	.	.	.
.	.	12G-X<L	.	12ryy	.	.
.	.	12F<	.	12ryy	.	.
.	.	12E-<J	.	6.E-<\	.	.
.	.	12G-<L	[4G-<\	.	.	.
.	.	12A-<	.	.	.	.
.	.	12c-X<J	.	12ryy	.	.
*v	*v	*	*	*	*	*
*	*	*v	*v	*	*
*	*v	*v	*	*
=55	=55	=55	=55
*Xped	*	*	*
1BB-] 1EE-]N)	[>1B-<; [>1G-X<] [>1E-<	.	[
=56	=56	=56	=56
*^	*^	*	*
*	*	*	*^	*	*
*ped	*	*	*	*	*	*
!	!	!	!LO:TX:t=P:mixed beam:problem	!	!	!
12ryy	12GGG-XL	(4B-<] 4G-X<]	12E-<L\]	4ryy	.	.
!LO:N:vis=6.	!	!	!	!	!	!
[<6GG-	12GG-	.	12GG-</	.	.	.
.	[12D-J	.	12D-<J/	.	.	.
!	!	!	!	!	!	!LO:HP:b=2
2.ryy	2.D-_ 2.GG-_	12G-y<L	2ryy	4ryy	.	<
.	.	12A-<	.	.	.	.
.	.	12c-X<J	.	.	.	.
.	.	12B-<L	.	12ryy	.	.
.	.	12A-<	.	12ryy	.	.
.	.	12G-<J	.	[[<6.G-y<\	.	.
.	.	12B-<L	[4B-<\	.	.	.
.	.	12c-X<	.	.	.	.
.	.	12e-J	.	12ryy	.	.
*v	*v	*	*	*	*	*
*	*	*v	*v	*	*
*	*v	*v	*	*
=57	=57	=57	=57
*Xped	*	*	*
1D-;<] 1GG-X]	1d-; [>1B-<] [>1G-X<]]	.	[
=58	=58	=58	=58
*^	*^	*	*
*	*	*	*^	*	*
*ped	*	*	*	*	*	*
12ryy	12BBB-L	(>4d-)	12B-<] 12G-X<L>]	4ryy	.	.
[<6BB-	12BB-	.	12BB-<	.	.	.
.	[12FJ	.	12F<J	.	.	.
2.ryy	2.F] 2.BB-]	12B-<L	2ryy	4ryy	.	.
.	.	12cn<	.	.	.	.
.	.	12e-J	.	.	.	.
.	.	12d-L	.	12ryy	.	.
.	.	12c	.	12ryy	.	.
.	.	12B-J	.	[[>6.B->\	.	.
!	!	!	!LO:TX:b:i:t=cresc. _:problem:dynamics with extention lines	!	!	!
!	!	!	!	!	!	!LO:HP:b:i:t=cresc.
.	.	12d-L	[<4d-	.	.	<
.	.	12e-	.	.	.	.
*Xped	*	*	*	*	*	*
.	.	12g-XJ	.	12ryy	.	.
*	*	*	*v	*v	*	*
!!LO:LB:g=original
=59	=59	=59	=59	=59	=59
*	*	*	*^	*	*
*ped	*	*	*	*	*	*
12ryy	12DD-L	4f 4d-])	(>12B-<L]]	4ryy	.	.
[<6D-	12D-	.	12D-<	.	.	.
.	[<12A-J	.	12A-<J	.	.	.
2.ryy	2.A-] 2.D-]	12d-L	2ryy	4ryy	.	.
.	.	12e-N	.	.	.	.
.	.	12g-XJ	.	.	.	.
.	.	12fL	.	12ryy	.	.
.	.	12e-	.	12ryy	.	.
.	.	12d-J	.	[[<6.d->	.	.
.	.	12fL	[4f	.	.	.
.	.	12gn	.	.	.	.
*Xped	*	*	*	*	*	*
.	.	.	.	.	.	.
.	.	12b-J	.	12ryy	.	[
*v	*v	*	*	*	*	*
*	*	*v	*v	*	*
*	*v	*v	*	*
=60	=60	=60	=60
&(<2F 2FF	12a-L 12f] 12d-]]	.	f
.	12f	.	.
.	12cJ	.	.
.	12fL	.	.
.	12g	.	.
.	12b-J	.	.
2C 2CC	12a-L	.	.
.	12f	.	.
.	12cJ	.	.
.	12fL	.	.
.	12a-	.	.
.	12dd-J	.	.
=61	=61	=61	=61
!	!LO:TX:b:i:t=cresc. _:problem:dynamics with extention lines	!	!
!	!	!	!LO:HP:b:i:t=cresc.
2GG 2GGG	12ccL	.	<
.	12a-	.	.
.	12fJ	.	.
.	12a-L<	.	.
.	12cc	.	.
.	12ggJ	.	.
4.BB- 4.BBB-	12ffL<	.	.
.	12cc	1	.
.	12a-J	2	.
.	12ccL	.	.
.	12ff	.	.
8AA- 8AAA-	.	.	[
.	12bb-J	.	.
!!LO:LB:g=original
=62	=62	=62	=62
2GG 2GGG	12aa-L	.	.
.	12ff	.	.
.	12ccJ	.	.
.	12ffL	.	.
.	12aa-	.	.
.	12ddd-J	.	.
[<2FF [2FFF	12cccL	.	.
.	12aa-	.	.
.	12ffJ	.	.
.	12aa-L	.	.
.	12ccc	.	.
.	12gggJ	.	.
=63	=63	=63	=63
*	*8va	*	*
2FF] 2FFF]	12fffL	.	.
.	12ccc	.	.
.	12aa-J	.	.
.	12cccL	.	.
.	12fff	.	.
.	12bbb-J	.	.
2EE- 2EEE-	12aaa-L	.	.
.	12fff	.	.
.	12cccJ	.	.
.	12fffL	.	.
.	12aaa-	.	.
.	12ccccJ	.	.
=64	=64	=64	=64
4DD- 4DDD-&)	12ffffL	.	ff
.	12eeee-	.	.
.	12dddd-J	.	.
4r	12ccccL	.	.
.	12cccc-X	.	.
.	12bbb-J	.	.
*clefG2	*	*	*
(<[2cc-X [<2f [<2d- [2c-X	12aaa-L	.	.
.	12ggg-X	.	.
.	12fffJ	.	.
.	12eee-L	.	.
.	12ddd-	.	.
.	12cccnJ	.	.
*	*X8va	*	*
!!LO:LB:g=original
=65	=65	=65	=65
!	!LO:TX:a:t=loco	!	!
2cc-X] 2f] 2d-] 2c-X]	12ccc-XL	.	.
.	12bb-	.	.
.	12aa-J	.	.
.	12gg-XL	.	.
.	12ff	.	.
.	12ee-J	.	.
2f 2d- 2c-y 2F	12dd-L	.	.
.	12ccn	.	.
.	12cc-XJ	.	.
.	12b-L>	.	.
.	12a-	.	.
.	12g-XJ	.	.
=66	=66	=66	=66
4a- 4d- 4c-X 4A-)	12fL	.	.
.	12e-	.	.
.	12d-J	.	.
4r	12cL	.	.
.	12c-X	.	.
.	12B-J	.	.
*clefF4	*	*	*
2rBB	12A-<L	.	.
.	12G-X<	.	.
.	12F<J	.	.
.	12E-<L	.	.
.	12D-<	.	.
.	12Cn<J	.	.
=67	=67	=67	=67
1rB<	16C-X<LL	.	.
.	16BB-<	.	.
.	16AA-<	.	.
.	16GG-X<JJ	.	.
.	16FF<LL	.	.
.	16EE-<	.	.
.	16DD-<	.	.
.	16CCn<JJ	.	.
.	16CC-X<LL	.	.
.	16BBB-<	.	.
.	16AAA-<	.	.
.	16GGG-<JJ	.	.
.	16FFF<LL	.	.
.	16EEE-<	.	.
.	16DDDn<	.	.
.	16DDD-X<JJ)	.	.
!!LO:PB:g=original
=68	=68	=68	=68
*^	*	*	*
*ped	*	*	*	*
4CCC'</	2ryy	4r	.	.
!	!	!LO:TX:a:i:t=agitato.	!	!
4r	.	(>2c^>	.	.
.	.	.	.	.
!	!LO:N:vis=3	!	!	!LO:DY:b=2:rj
2EEn/	(<12EEnL<	.	.	p
.	12C	.	.	.
.	12D-J	.	.	.
.	12CL<	4G<^>/	.	.
.	12D-	.	.	.
.	12CJ)	.	.	.
*Xped	*	*	*	*
=69	=69	=69	=69	=69
!	!LO:N:vis=3	!	!	!
2FF\	12FFL	8G<	.	.
.	12C	.	.	.
.	.	4A-<^>	.	.
.	12D-J	.	.	.
.	12CL	.	.	.
.	12D-	.	.	.
.	.	4a-	.	.
.	12CJ	.	.	.
*ped	*	*	*	*
2rcyy	12FFL<	.	.	.
.	12D-	.	.	.
.	.	4g	.	.
.	12A-J	.	.	.
*Xped	*	*	*	*
.	.	.	.	.
.	12DnL	.	.	.
.	12A-	.	.	.
.	.	[<8f	.	.
.	12DJ	.	.	.
*v	*v	*	*	*
=70	=70	=70	=70
*ped	*	*	*
12GGL	8f]	.	.
12E-	.	.	.
.	4e-	.	.
12B-J	.	.	.
12E-L	.	.	.
12B-	.	.	.
.	8qg/	.	.
.	4f	.	.
*Xped	*	*	*
12E-J	.	.	.
*ped	*	*	*
12GGL	.	.	.
12E-	.	.	.
.	[<4e-	.	.
12BnJ	.	.	.
*Xped	*	*	*
.	.	.	.
12E-L	.	.	.
12B	.	.	.
.	16e-LL]	.	.
12E-J	.	.	.
.	16BnJJ	.	.
!!LO:LB:g=original
=71	=71	=71	=71
*ped	*	*	*
12AA-L	(<8BnL	.	.
12E-	.	.	.
.	8cJ))	.	.
12cJ	.	.	.
12E-L	8r	.	.
12c	.	.	.
*Xped	*	*	*
.	(4cc	.	.
12E-J	.	.	.
*ped	*	*	*
12AA-L	.	.	.
12En	.	.	.
!	!LO:TX:b:i:t=cresc. _:problem:dynamics with extention lines	!	!
!	!	!	!LO:HP:b:i:t=cresc.
.	4b-	.	<
12cJ	.	.	.
12EL	.	.	.
12c	.	.	.
.	[<8a-/	.	.
*Xped	*	*	*
12FJ	.	.	.
=72	=72	=72	=72
*ped	*	*	*
12BBnL	8a-]	.	.
12F	.	.	.
.	4g	.	.
12dnJ	.	.	.
12FL	.	.	.
12d	.	.	.
.	8qb-/	.	.
.	4a-	.	.
*Xped	*	*	*
12FJ	.	.	.
*ped	*	*	*
12BBL	.	.	.
12G	.	.	.
.	4g	.	.
12dJ	.	.	.
12GL	.	.	.
12d	.	.	.
.	8f	.	.
*Xped	*	*	*
12A-J	.	.	.
=73	=73	=73	=73
*ped	*	*	*
12CL	8fL	.	.
12G	.	.	.
.	8enJ)	.	.
12B-	.	.	.
12d-	8r	.	.
12B-	.	.	.
*Xped	*	*	*
.	(8dd- 8b-	.	.
12GJ	.	.	.
*ped	*	*	*
12CL	8ccL 8a-	.	.
12A-	.	.	.
.	8b- 8g	.	.
12Bn	.	.	.
12dn	8a- 8f	.	.
12B	.	.	.
.	8ffJ 8ddn	.	.
*Xped	*	*	*
12GJ	.	.	.
=74	=74	=74	=74
*ped	*	*	*
12CL	8eenL> 8cc	.	.
12G	.	.	.
.	8gJ 8en)	.	.
12B-X	.	.	.
12d-X	8r	.	.
12B-	.	.	.
*Xped	*	*	*
.	(>8dd- 8b-	.	.
12GJ	.	.	.
*ped	*	*	*
12CL	8ccL 8a-	.	.
12A-	.	.	.
.	8b- 8g	.	.
12Bn	.	.	.
12dn	8a- 8f	.	.
12B	.	.	.
.	8ffJ 8ddn	.	[
*Xped	*	*	*
12A-J	.	.	.
!!LO:LB:g=original
=75	=75	=75	=75
*ped	*	*	*
12CL	8eenL> 8cc	.	.
12G	.	.	.
.	8gJ 8en)	.	.
12c	.	.	.
12en	8r	.	.
12c	.	.	.
.	(8aa- 8ff	.	.
*Xped	*	*	*
12GJ	.	.	.
*ped	*	*	*
12CL	8ggL 8ee	.	.
12G	.	.	.
.	8ccJ 8g)	.	.
12c	.	.	.
12e	8r	.	.
12c	.	.	.
.	(8ccc 8aa-	.	.
*Xped	*	*	*
12GJ	.	.	.
=76	=76	=76	=76
*ped	*	*	*
12CL	8ccc 8gg	.	.
12G	.	.	.
.	4ccc 4cc	.	.
12c	.	.	.
12en	.	.	.
12c	.	.	.
.	4ccc 4cc	.	.
12GJ	.	.	.
12CL	.	.	.
12G	.	.	.
.	4ccc 4cc	.	.
12c	.	.	.
12e	.	.	.
12c	.	.	.
.	8ccc 8cc	.	.
*Xped	*	*	*
12GJ	.	.	.
=77	=77	=77	=77
*ped	*	*	*
(12AA-L	8cccL 8aa-	.	.
12e-	.	.	.
.	8ddd- 8ee-	.	.
12A-J)	.	.	.
(12E-L	8dddn 8aa-	.	.
12e-	.	.	.
.	8eee-J 8ee-	.	.
*Xped	*	*	*
12A-J)	.	.	.
*ped	*8va	*	*
(12BB-L	8fffL 8gg	.	.
12e-	.	.	.
.	8eee- 8ddd-X	.	.
12GJ)	.	.	.
.	[<8qddd-/	.	.
(12E-L	8.cccc 8.ddd-]	.	.
12e-	.	.	.
*Xped	*	*	*
12GJ)	.	.	.
.	16bbb-Jk 16eee-	.	.
!!LO:LB:g=original
=78	=78	=78	=78
*	*^	*	*
*ped	*	*	*	*
12CL	2.ryy	8bbb-L 8ccc	.	.
12e-	.	.	.	.
.	.	8aaa-J 8eee-	.	.
*Xped	*	*	*	*
12A-J	.	.	.	.
*	*	*Xtuplet	*	*
*ped	*	*	*	*
12CL	.	12gggL 12bb-	.	.
12en	.	12fff 12aa-	.	.
*Xped	*	*	*	*
12B-J	.	12eeenJ 12gg	.	.
*ped	*	*	*	*
12FL	.	8gggL 8bb-	.	.
12a-	.	.	.	.
.	.	16r	.	.
*Xped	*	*	*	*
12cJ	.	.	.	.
.	.	(16fffk 16aa-)	.	.
*	*Xtuplet	*	*	*
*ped	*	*	*	*
12B-L	12fffL	8aa-	.	.
12a-	12eee-X	.	.	.
.	.	8bb-J	.	.
*Xped	*	*	*	*
12fJ	12dddnJ)	.	.	.
*	*X8va	*	*	*
*	*v	*v	*	*
=79	=79	=79	=79
*ped	*	*	*
!	!LO:TX:a:t=loco.	!	!
12E-L	(8fffL 8gg	.	.
12g	.	.	.
.	8eee- 8bb-	.	.
*Xped	*	*	*
12e-J	.	.	.
*ped	*	*	*
12A-L	8ddd-X 8gg-X	.	.
12g-X	.	.	.
.	8cccJ 8aa-	.	.
*Xped	*	*	*
12e-J	.	.	.
*ped	*	*	*
12D-L	8eee-L 8ff	.	.
12f	.	.	.
.	8ddd- 8aa-	.	.
12d-J	.	.	.
12B-L	8ccc 8dd-	.	.
12f	.	.	.
.	8bb-J 8ff)	.	.
*Xped	*	*	*
12d-J	.	.	.
=80	=80	=80	=80
*	*^	*	*
*ped	*	*	*	*
12E-L	2.ryy	(8bb-L 8cc	.	.
12e-	.	.	.	.
.	.	8aa- 8ee-	.	.
12cJ	.	.	.	.
12A-L	.	8ggn 8a-	.	.
12e-	.	.	.	.
*Xped	*	*	*	*
.	.	8ffJ 8cc	.	.
12cJ	.	.	.	.
*ped	*	*	*	*
12EE-L	.	8ee-L 8g	.	.
12d-	.	.	.	.
.	.	8een 8dd-	.	.
12GJ	.	.	.	.
*	*tuplet	*	*	*
12E-L	12ggL	8g	.	.
12d-	12ff	.	.	.
.	.	8b-J	.	.
*Xped	*	*	*	*
12GJ	12dd-J	.	.	.
*	*v	*v	*	*
!!LO:PB:g=original
=81	=81	=81	=81
*ped	*	*	*
12AA-L	8ccL> 8a-	.	.
12c	.	.	.
.	8dd- 8e-	.	<
12A-J	.	.	.
12E-L	8ddn 8a-	.	.
12c	.	.	.
.	8ee-J 8e-	.	.
*Xped	*	*	*
12A-J	.	.	.
*ped	*	*	*
12BB-L	8ffL 8g	.	.
12e-	.	.	.
.	8ee- 8dd-X	.	.
12GJ	.	.	.
.	[<8qdd-/	.	.
12E-L	8.ccc 8.dd-]	.	.
12e-	.	.	.
*Xped	*	*	*
12GJ	.	.	.
.	16bb-Jk 16ee-)	.	[
=82	=82	=82	=82
*	*^	*	*
*ped	*	*	*	*
12CL	2.ryy	(8bb-L 8cc	.	.
12e-	.	.	.	.
.	.	8aa-J 8ee-	.	.
*Xped	*	*	*	*
12A-J	.	.	.	.
!	!	!LO:TUP:a	!	!
*ped	*	*	*	*
12CL	.	12ggL 12b-	.	.
12en	.	12ff 12a-	.	.
*Xped	*	*	*	*
12B-J	.	12eenJ 12g	.	.
*ped	*	*	*	*
12FL	.	8ggL 8b-)	.	.
12f	.	.	.	.
.	.	16rdd	.	.
*Xped	*	*	*	*
12cJ	.	.	.	.
.	.	(16ffJk 16a-	.	.
*ped	*	*	*	*
12BB-L	12ffL	8a-L	.	.
12f	12ee-X	.	.	.
.	.	8b-J	.	.
*Xped	*	*	*	*
12B-J	12ddnJ	.	.	.
*	*v	*v	*	*
=83	=83	=83	=83
*ped	*	*	*
12E-L	(>8ffL 8g)	.	.
12e-	.	.	.
.	8ee- 8b-	.	.
*Xped	*	*	*
12B-J	.	.	.
*ped	*	*	*
12AA-L	8dd-X 8g-X	.	.
12e-	.	.	.
.	8ccJ 8a-	.	.
*Xped	*	*	*
12A-J	.	.	.
*ped	*	*	*
12D-L	8ee-L> 8f	.	.
12d-	.	.	.
.	8dd- 8a-	.	.
*Xped	*	*	*
12A-J	.	.	.
*ped	*	*	*
!LO:TX:t=P:mixed beam:problem	!	!	!
12DD-L</	8cc 8d-	.	.
12B-\	.	.	.
.	8b-J 8f	.	.
*Xped	*	*	*
12F\J	.	.	.
!!LO:LB:g=original
=84	=84	=84	=84
*ped	*	*	*
!LO:TX:t=P:mixed beam:problem	!	!	!
12EE-/L<	8b-L 8c	.	.
12A-\	.	.	.
.	8a- 8e-	.	.
12E-\J	.	.	.
12CL	8g 8A-	.	.
12A-	.	.	.
.	8a-J 8c	.	.
*Xped	*	*	*
12E-J	.	.	<
*ped	*	*	*
!LO:TX:t=P:mixed beam:problem	!	!	!
12EE-/L<	8anL 8d-	.	.
12G\	.	.	.
.	8b- 8e-	.	.
12E-\J	.	.	.
12BB-L	8cc 8d-	.	.
12G	.	.	.
.	8dd-J 8e-)	.	.
*Xped	*	*	*
12E-J	.	.	[
=85	=85	=85	=85
.	8qA-</	.	>
*ped	*Xtuplet	*	*
!	!LO:TX:t=P:diminuendo starts from barline:problem	!	!
2F/ 2C-X/ 2DDn/	(>12cc-XL	.	.
.	12a-	.	.
.	12fJ	.	.
.	12B-L	.	.
.	.	.	.
.	12c-X	.	.
.	12A-<J	.	]
*Xped	*	*	*
4BB-\ 4EE-\	12G<L	.	.
.	12B-<	.	.
.	12dnJ	.	.
4r	12f-XL	.	.
.	12e-	.	.
.	12ee-J	.	.
=86	=86	=86	=86
.	8qB-</	.	.
*ped	*	*	*
(<2Gn/ 2D-/ 2EEn/	12dd-L>	.	>
.	12b-	.	.
.	12gnJ	.	.
.	12cL	.	.
.	12d-	.	.
.	12B-J	.	]
*Xped	*	*	*
4C\ 4FF\)	12An<L	.	.
.	12c	.	.
.	12enJ	.	.
4r	12g-XL<	.	.
.	12f	.	.
.	12ffJ	.	.
!!LO:LB:g=original
=87	=87	=87	=87
*ped	*	*	*
4c 4F 4AAn	12dd-L	.	.
.	12cc	.	.
.	12cccJ	.	.
4f 4An 4C	12gg-L	.	.
.	12ff	.	.
.	12fffJ	.	.
*	*8va	*	*
4an 4c 4F	12ddd-L	.	.
.	12ccc	.	.
.	12ccccJ	.	.
*clefG2	*	*	*
4cc/ 4f/ 4An/	12ggg-XL	.	.
.	12fff	.	.
.	12ffffJ	.	.
=88	=88	=88	=88
4ff:/ 4an:/ 4c:/	12ccccL	.	.
.	12aaan	.	.
.	12fffJ	.	.
*	*X8va	*	*
!	!LO:TX:a:t=loco	!	!
4r	12cccL	.	.
.	12aan	.	.
.	12ffJ	.	.
4r	12ccL	.	.
.	12an	.	.
.	12fJ	.	.
*clefF4	*	*	*
12rGG	12c<L	.	.
12rGG	12F<J)	.	.
12FF\	12rA<	.	.
*Xped	*	*	*
=89	=89	=89	=89
.	8qB-</	.	>
*ped	*	*	*
(</2Gn 2D-/ 2EEn/	(>12dd-L>	.	.
.	12b-	.	.
.	12gJ	.	.
.	12cL	.	.
.	.	.	.
.	12d-	.	.
.	12B-J	.	.
*Xped	*	*	*
4C 4FF)	12An<L	.	]
.	12c	.	.
.	12enJ	.	.
4r	12g-XL<	.	.
.	12f	.	.
.	12ffJ)	.	.
!!LO:LB:g=original
=90	=90	=90	=90
.	(>8qc/	.	>
*ped	*	*	*
(<2An/ 2E-/ /2FF#X	(12ee-L<)	.	.
.	12cc	.	.
.	12anJ	.	.
.	12dnL	.	.
.	12e-	.	.
.	12cJ	.	]
*Xped	*	*	*
4Dni/ 4GG/)	12BnL	.	.
.	12dnX	.	.
.	12f#XJ	.	.
4r	12a-XL<	.	.
.	12g	.	.
.	12ggJ	.	.
=91	=91	=91	=91
*ped	*	*	*
4Bn 4Dn 4GG	12a#XL	.	.
.	12bn	.	.
.	12bbnJ	.	.
4g 4B 4D	12cc#XL	.	.
.	12ddn	.	.
.	12dddnJ	.	.
*clefG2	*	*	*
4bn 4dn 4G	12ff#XL	.	.
.	12gg	.	.
.	12gggJ	.	.
*	*8va	*	*
4ddn 4g 4Bn	12aa#XL	.	.
.	12bbn	.	.
.	12ddddnJ	.	.
=92	=92	=92	=92
4gg/ 4bn/ 4dn/	12bbbnL	.	.
.	12ggg	.	.
.	12dddnJ	.	.
*	*X8va	*	*
!	!LO:TX:a:t=loco	!	!
4r	12bbnL	.	.
.	12gg	.	.
.	12ddnJ	.	.
4r	12bnL	.	.
.	12g	.	.
.	12dnJ	.	.
*clefF4	*	*	*
12rGG	12Bn<L	.	.
12rGG	12G<J)	.	.
12GG\	12rA<	.	.
*Xped	*	*	*
!!LO:PB:g=original
=93	=93	=93	=93
*ped	*	*	*
(<12CCL>	(>2ee- 2e-	.	f
12GG	.	.	>
12E-J	.	.	.
12GGL>	.	.	.
12E-	.	.	.
*Xped	*	*	*
12GGJ)	.	.	.
*ped	*	*	*
(<12CCL>	8ddnL 8dn	.	.
12AA-	.	.	.
.	8dd-X 8d-X	.	.
12E-J	.	.	.
12AA-L>	8cc 8c	.	.
12E-	.	.	.
.	8bnJ 8Bn	.	.
*Xped	*	*	*
12AA-J)	.	.	.
=94	=94	=94	=94
*	*^	*	*
*	*tuplet	*	*	*
*ped	*	*	*	*
!	!LO:TUP:b	!	!	!
(<12CCL>	12b-XL 12B-X	2ryy	.	]
12AA-	12b-- 12B--	.	.	.
12FJ	12a-J 12A-	.	.	.
12AA-L>	2a-^> 2A-	.	.	.
12F	.	.	.	.
*Xped	*	*	*	*
12AA-J)	.	.	.	.
*ped	*	*	*	*
(<12BBBnL>	.	2f 2dn	.	.
12GG	.	.	.	.
12FJ	.	.	.	.
12GGL>	[4g [<4G	.	.	.
12F	.	.	.	.
*Xped	*	*	*	*
12GGJ)	.	.	.	.
*	*v	*v	*	*
=95	=95	=95	=95
*ped	*	*	*
4CC'</	4g] 4e- 4c 4G])	.	.
(12e-L	(8ggL 8ee-	.	.
12c	.	.	.
.	8eee-J 8ccc)	.	.
*Xped	*	*	*
12GJ	.	.	.
*ped	*	*	*
12CL	(8cccL 8aa-	.	.
12A-	.	.	.
.	8ee-J 8cc)	.	.
12c)	.	.	.
(12e-	(8ccL 8a-	.	.
12c	.	.	.
.	8aa-J 8ee-)	.	.
*Xped	*	*	*
12A-J	.	.	.
!!LO:LB:g=original
=96	=96	=96	=96
12DnL	(8ffL 8ddn	.	.
12A-	.	.	.
.	8ccJ 8f)	.	.
12c)	.	.	.
(12dn	(8ccL 8f#X	.	.
12c	.	.	.
.	8ff#XJ 8dd)	.	.
12A-J	.	.	.
12GGL	(8ggL 8dd	.	.
12Dn	.	.	.
.	8bnJ 8g)	.	.
12G)	.	.	.
(12Bn	(8gL> 8fn	.	.
12G	.	.	.
.	8ddJ 8b)	.	.
12DJ	.	.	.
=97	=97	=97	=97
*	*^	*	*
(12EE-L)	2ryy	(2ggg 2bb-X 2gg	.	>
12BB-	.	.	.	.
12E-	.	.	.	.
12G	.	.	.	.
12B-	.	.	.	.
12e-J	.	.	.	.
12gL	2bb-	8fffL 8ff	.	.
12e-	.	.	.	.
.	.	8eee- 8ee-	.	.
12B-	.	.	.	.
12G	.	8dddn 8ddn	.	.
12E-	.	.	.	.
.	.	8ccc#XJ 8cc#X	.	.
12BB-J)	.	.	.	]]
=98	=98	=98	=98	=98
*ped	*	*tuplet	*	*
!	!	!LO:TUP:a	!	!
(12FFL>	2aa-	(>12cccnL 12ccn	.	.
12Dn	.	12bbn 12bn	.	.
12A-	.	12bb-XJ 12b-X)	.	.
12D	.	2bb- 2b-	.	>
12A-	.	.	.	.
*Xped	*	*	*	*
12DJ)	.	.	.	.
*ped	*	*	*	*
12BBB-L>	2ddn	.	.	.
12BB-	.	.	.	.
12A-	.	.	.	.
12BB-	.	4aa- 4a-	.	.
12A-	.	.	.	]
*Xped	*	*	*	*
12BB-J	.	.	.	.
*	*v	*v	*	*
!!LO:LB:g=original
=99	=99	=99	=99
*ped	*	*	*
4EE-'</	4gg 4ee- 4g)	.	.
!LO:TX:t=P:rendering:slur under the upper staff:problem	!	!	!
(12g>L	(>8bb-L< 8gg	.	.
12e->	.	.	.
.	8gggJ 8eee-)	.	.
*Xped	*	*	*
12B->J	.	.	.
*ped	*	*	*
12CL	(>8eee-L 8ccc	.	.
12E-	.	.	.
.	8aa-J 8ee-)	.	.
12A-)	.	.	.
(>12e-	(>8ee-L 8cc	.	.
12A-	.	.	.
.	8cccJ 8aa-)	.	.
*Xped	*	*	*
12E-J	.	.	.
=100	=100	=100	=100
*ped	*	*	*
12DnL	(8bb-L 8aa-	.	.
12A-	.	.	.
.	8ddnJ 8b-)	.	.
12B-)	.	.	.
(12f	(8ddL 8bn	.	.
12B-X	.	.	.
*Xped	*	*	*
.	8bbnJ 8aa-)	.	.
12A-J	.	.	.
*ped	*	*	*
12BB-L	(8cccL 8aa-	.	.
12A-	.	.	.
.	8ddJ 8cc)	.	.
12B-)	.	.	.
(>12dn	(8b-XL 8f#X	.	.
12B-	.	.	.
.	8ff#XJ 8dd)	.	.
*Xped	*	*	*
12A-J	.	.	.
=101	=101	=101	=101
*ped	*	*	*
!	!LO:TX:b:i:t=cresc. _:problem:dynamics with extention lines	!	!
!	!	!	!LO:HP:b:i:t=cresc.
4E-/ 4EE-/)	(8ggL 8ee-	.	<
.	8b-J 8g)	.	.
4e-\ 4B-\ 4G\	(8b-L 8g	.	.
.	8ggJ 8ee-)	.	.
*Xped	*	*	*
.	.	.	.
*ped	*	*	*
4Dn/ 4DDn/	(8gg#XL 8een	.	.
.	8bnJ 8g#X)	.	.
4en\ 4Bn\ 4G#X\	(8bL 8g#	.	.
*Xped	*	*	*
.	8gg#J 8ee)	.	.
!!LO:LB:g=original
=102	=102	=102	=102
*ped	*	*	*
4D-X/ 4DD-X/	(8aanL 8ff	.	.
.	8dd-J 8cc-X)	.	.
4f\ 4d-\ 4A-\	(8dd-L 8cc-	.	.
*Xped	*	*	*
.	8aaJ 8ff)	.	.
*ped	*	*	*
4G-X/ 4GG-X/	(8bb-L 8gg-X	.	.
.	8dd-J 8b-)	.	.
4en 4c 4G-	(8ccnL 8b-	.	.
*Xped	*	*	*
.	8bb-J 8een)	.	.
=103	=103	=103	=103
*ped	*	*	*
4F/ 4FF/	(8aanL 8ff	.	.
.	8ccJ 8an)	.	.
4f\ 4c\ 4An\	(8ccL 8a	.	.
.	8aaJ 8ff)	.	.
*Xped	*	*	*
.	.	.	.
*ped	*	*	*
4En/ 4EEn/	(8aa#XL 8ff#X	.	.
.	8cc#XJ 8a#X)	.	.
4f#X\ 4c#X\ 4A#X\	(8cc#L 8a#	.	.
*Xped	*	*	*
.	8aa#J 8ff#)	.	.
=104	=104	=104	=104
*ped	*	*	*
4E-X/ 4EE-X/	(8bbnL 8gg	.	.
.	8ee-J 8dd-)	.	.
4g\ 4e-\ 4B-\	(8ee-L 8dd-	.	.
*Xped	*	*	*
.	8bbJ 8gg)	.	.
*ped	*	*	*
4A-\ 4AA-\	(8cccL 8aa-	.	.
.	8ee-J 8cc)	.	.
4a-\ 4dn\ 4c\	(8ddnL 8cc	.	.
*Xped	*	*	*
.	.	.	.
.	8cccJ 8ff#X)	.	.
=105	=105	=105	=105
*ped	*	*	*
4G/ 4GG/	(8bbnL 8gg	.	.
.	8ddnJ 8bn)	.	.
4g\ 4dn\ 4Bn\	(8ddL 8b	.	.
*Xped	*	*	*
.	8bbJ 8gg)	.	.
*ped	*	*	*
4G-X/ 4GG-X/	(8cccL 8aa-	.	.
.	8ee-J 8cc)	.	.
4a-\ 4e-\ 4c\	(8ee-L 8cc	.	.
*Xped	*	*	*
.	8cccJ 8aa-)	.	.
!!LO:PB:g=original
=106	=106	=106	=106
*ped	*	*	*
4F/ 4FF/	(8ccc#XL 8aan	.	.
.	8ffJ 8ee-)	.	.
4an\ 4f\ 4e-\	(8ffL 8ee-	.	.
*Xped	*	*	*
.	.	.	.
.	8ccc#J 8aa)	.	.
*ped	*	*	*
4BB-/ 4BBB-/	(8dddnL 8bb-	.	.
.	8ffJ 8ddn)	.	.
*clefG2	*	*	*
4b-/ 4f/ 4dn/	(8ffL 8dd	.	.
*Xped	*	*	*
.	.	.	.
.	8dddJ 8bb-)	.	.
*clefF4	*	*	*
=107	=107	=107	=107
*ped	*	*	*
4BB-X/ 4BBB-X/	(8ddd#XL 8bbn	.	.
.	8ff#XJ 8dd#X)	.	.
4d#X\ 4Bn\ 4F#X\	(8ff#L 8dd#	.	.
*Xped	*	*	*
.	8ddd#J 8bb)	.	.
*ped	*	*	*
4BB-X/ 4BBB-X/	(8eeenL 8ccc	.	.
.	8ggJ 8een)	.	.
4en\ 4c\ 4G\	(8ggL 8ee	.	.
*Xped	*	*	*
.	8eeeJ 8ccc)	.	.
=108	=108	=108	=108
*	*^	*	*
*ped	*	*	*	*
4BB-/ 4BBB-/	2.ryy	(8fffL 8ddd-X	.	.
.	.	8aa-J 8ff)	.	.
4f\ 4d-X\ 4A-\ 4F\	.	(8aa-L 8ff	.	.
*Xped	*	*	*	*
.	.	.	.	.
.	.	8fffJ 8ddd-)	.	.
*ped	*	*	*	*
4BB-/ 4BBB-/	.	(8fff#XL 8dddn	.	.
.	.	8bb-J 8aa-)	.	.
4f#X\ 4dn\ 4B-\ 4A-\	[(4bb-	8aa-L	.	[
*Xped	*	*	*	*
.	.	8fff#J 8ddd)	.	.
*	*v	*v	*	*
!!LO:LB:g=original
=109	=109	=109	=109
4EE-/ 4EEE-/	4ggg 4eee- 4bb-] 4gg	.	ff
(<8F#XL< 8FF#X	(8anL 8An<	.	<
8GJ 8GG	8b-J 8B-<	.	.
8DnL> 8DDn	8ddnL> 8dn	.	.
8E- 8EE-	8ee- 8e-	.	.
8BB- 8BBB-	8gg 8g	.	.
8GGJ 8GGG	8bb-J 8b-	.	[[
=110	=110	=110	=110
*ped	*	*	*
4EE-'</ 4EEE-/)	4eee-'> 4ee-)	.	>
(<2G/ 2E-/ 2GG/	(>2b- 2e- 2B-	.	.
*Xped	*	*	*
8.A-L 8.E- 8.AA-	8.dd-L 8.e- 8.d-	.	.
.	.	.	]
16A-Jk 16E- 16AA-	16cc-XJk 16e- 16c-X	.	.
=111	=111	=111	=111
4G'</ 4E-/ 4GG/)	4b-'> 4e- 4B-)	.	.
(8F#XL> 8FF#X	(8anL 8An	.	<
8GJ 8GG	8b-J 8B-	.	.
8DnL> 8DDn	8ddnL> 8dn	.	.
8E- 8EE-	8ee- 8e-	.	.
8BB- 8BBB-	8gg 8g	.	.
8GGJ 8GGG	8bb-J 8b-	.	[[
=112	=112	=112	=112
*ped	*	*	*
4EE-'</ 4EEE-/)	4ggg'> 4gg)	.	.
2BB-\ 2BBB-\	2g 2e- 2B-< 2G<	.	.
*Xped	*	*	*
8.BB-L< 8.BBB-	(>8.gL 8.dn 8.A-<	.	.
16BB-Jk 16BBB-	16fJk 16d 16A-<	.	.
=113	=113	=113	=113
4E-\ 4EE-\	4g'> 4e- 4G<)	.	.
(<8F#XL> 8FF#X	(>8anL 8An	.	<
8GJ 8GG	8b-J 8B-	.	.
8DnL> 8DDn	8ddnL> 8dn	.	.
8E- 8EE-	8ee- 8e-	.	.
8BB- 8BBB-	8gg 8g	.	.
8GGJ 8GGG	8bb-J 8b-	.	[
!!LO:LB:g=original
=114	=114	=114	=114
*ped	*	*	*
4EE-'</ 4EEE-/)	4eee-'> 4ee-)	.	>
2G/ 2E-/ 2GG/	2b- 2e- 2B-	.	.
*tuplet	*	*	*
*Xped	*tuplet	*	*
!LO:TUP:a	!	!	!
(>12B-L 12E- 12BB-	(>12dd-L 12e- 12d-	.	.
.	.	.	]
12.A- 12.E- 12.AA-	12.cc-X 12.e- 12.c-X	.	.
24GJk 24E- 24GG)	24b-Jk 24e- 24B-)	.	.
=115	=115	=115	=115
4G/ 4E-/ 4GG/	4b- 4e- 4B-	.	.
(<8F#XL> 8FF#X	(>8anL 8An	.	<
8GJ 8GG	8b-J 8B-	.	.
8DnL> 8DDn	8ddnL> 8dn	.	.
8E- 8EE-	8ee- 8e-	.	.
8BB- 8BBB-	8gg 8g	.	.
8GGJ 8GGG	8bb-J 8b-	.	[
=116	=116	=116	=116
*ped	*	*	*
4EE-'<\ 4EEE-\)	4ggg'> 4gg)	.	.
2BB-\ 2BBB-\	2g^< 2e- 2B-< 2G<	.	.
*Xped	*	*	*
.	.	.	.
8.BB-L< 8.BBB-	(>8.g^<L 8.dn 8.A-<	.	.
16BB-Jk 16BBB-	16fJk 16d 16A-<)	.	.
=117	=117	=117	=117
4E-\ 4BB-\ 4EE-\	4g'> 4e- 4G<	.	.
*ped	*	*	*
2BB-\ 2BBB-\	2g^< 2dn 2A-<	.	.
8.BB-L< 8.BBB-	(>8.g^<L 8.d 8.A-<	.	.
16BB-Jk 16BBB-	16fJk 16d 16A-<)	.	.
*Xped	*	*	*
=118	=118	=118	=118
4BB-\ 4EE-\	4g'> 4e- 4G<	.	.
*ped	*	*	*
2BB-\ 2BBB-\	2g^< 2dn 2A-<	.	.
8.BB-L< 8.BBB-	(>8.g^<L 8.d 8.A-<	.	.
16BB-Jk 16BBB-	16fJk 16d 16A-<)	.	.
*Xped	*	*	*
!!LO:LB:g=original
=119	=119	=119	=119
*ped	*	*	*
4BBn\ 4BBBn\	4g'> 4f 4dn 4G<	.	.
4r	4r	.	.
!	!LO:TX:t=P:diminuendolike accent:problem	!	!
[2Bn [2G [>2Dn [<2BBn	(>[2gg^< [2ff [<2ddn [<2g	.	.
=120	=120	=120	=120
4BnX] 4G] 4DnX] 4BBnX]	4gg] 4ff] 4ddnX] 4g]	.	.
8BL 8G 8D 8BB	8gg'>L 8ff 8dd 8g)	.	<
8BJ 8G 8D 8BB	8gg'>J 8ff 8dd 8g	.	.
8BL 8G 8D 8BB	8gg'>L 8ff 8dd 8g	.	.
8B 8G 8D 8BB	8gg'> 8ff 8dd 8g	.	.
8B 8G 8D 8BB	8gg'> 8ff 8dd 8g	.	.
8BJ 8G 8D 8BB	8gg'>J 8ff 8dd 8g	.	[
=121	=121	=121	=121
4Bn 4G 4Dn 4BBn	4gg' 4ff 4ddn 4g	.	.
*Xped	*	*	*
.	.	.	.
4r	4r	.	.
*ped	*	*	*
!	!LO:TX:t=P:diminuendolike accent:problem	!	!
2Bn 2G#X 2En 2D 2BBn	(2gg#X^< 2een 2ddn 2g#X	.	.
=122	=122	=122	=122
!	!LO:S:s=1:note:problem:note-level slur	!	!
4EEn 4EEEn	4en 4En<)	.	.
8enL 8dn 8Bn 8E-	8gg#X'>L 8een 8bn 8g#X	.	<
8eJ 8d 8B 8E-	8gg#'>J 8ee 8b 8g#	.	.
8eL 8d 8B 8E-	8gg#'>L 8ee 8b 8g#	.	.
8e 8d 8B 8E-	8gg#'> 8ee 8b 8g#	.	.
8e 8d 8B 8E-	8gg#'> 8ee 8b 8g#	.	.
8eJ 8d 8B 8E-	8gg#'>J 8ee 8b 8g#	.	[
=123	=123	=123	=123
4en 4dn 4Bn 4En	4gg#X'> 4een 4bn 4g#X	.	.
4r	4r	.	.
*Xped	*	*	*
2B 2E 2BBn	2gg#^< 2ee 2ddn 2g#	.	.
!!LO:PB:g=original
=124	=124	=124	=124
*ped	*	*	*
2Bn 2A- 2F 2BBn	2aa-^< 2ff 2dd-X 2a-	.	.
*Xped	*	*	*
.	.	.	.
*ped	*	*	*
2c 2A- 2F 2C	2aa-^< 2ff 2cc 2a-	.	.
*Xped	*	*	*
=125	=125	=125	=125
*ped	*	*	*
2dn 2B- 2F 2Dn	2aa-^< 2ff 2b- 2a-	.	.
*Xped	*	*	*
.	.	.	.
*ped	*	*	*
2e- 2B- 2E-	2gg^< 2ee- 2b- 2g	.	.
*Xped	*	*	*
=126	=126	=126	=126
*ped	*	*	*
2e-: 2B-: 2F: 2BB-:	2ccc^< 2ff 2ee- 2cc	.	.
*Xped	*	*	*
.	.	.	.
*ped	*	*	*
2BB-\ 2BBB-\	2dn^< 2B-< 2A-< 2Dn<	.	.
*Xped	*	*	*
=127	=127	=127	=127
*	*^	*	*
!	!	!	!	!LO:DY:rj
4EE-'<\ 4EEE-\	(>4e-	4G<'> 4E-<	.	p
4FF'<\ 4FFF\	2B-^>	4Dn<'>	.	.
4GG'<\ 4GGG\	.	4E-<'>	.	.
4CC'<\ 4CCC\	4g	4e-<'> 4A-<	.	.
=128	=128	=128	=128	=128
4DDn'</ 4DDDn/	4f	4B-< 4A-<	.	.
4C'<\ 4CC\	4e-	4A-<'> 4E-<	.	.
4BB-'<\ 4BBB-\	4dn	4B-<'> 4F<	.	.
4AA-'<\ 4AAA-\	8cL	4Dn<'>	.	.
.	8dJ	.	.	.
=129	=129	=129	=129	=129
4GG'<\ 4GGG\	8c	4E-<	.	.
.	[4.B-	.	.	.
4FF'<\ 4FFF\	.	4A-< 4Dn<	.	.
4EE-'<\ 4EEE-\	4B-]	4G< 4E-<	.	.
4CC'<\ 4CCC\	4g	4e-< 4A-<	.	.
!!LO:LB:g=original
=130	=130	=130	=130	=130
4DDn'<\ 4DDDn\	4f	4B-< 4A-<	.	.
4C'<\ 4CC\	4e-	4A-<' 4E-<	.	.
4BB-'<\ 4BBB-\	4dn	4B-< 4F<	.	.
4AA-'<\ 4AAA-\	8e-L 8c	4ryy	.	.
.	8fJ 8d	.	.	.
=131	=131	=131	=131<	=131
4AA-'<\ 4AAA-\	4B-	4F<	.	.
4GG'<\ 4GGG\	8cL	4E-<	.	.
.	8B-J	.	.	.
4GG'<\ 4GGG\	4e-	4B-< 4E-<	.	.
4DDn'<\ 4DDDn\	4f	4B-< 4F<	.	.
=132	=132	=132	=132	=132
4EE-'<\ 4EEE-\	4g	4B-< 4G<	.	.
4BB-'<\ 4BBB-\	2g	4dn< 4G<	.	.
4C'<\ 4CC\	.	4e-< 4G<	.	.
4GG'<\ 4GGG\	[4g	4d< 4B-<	.	.
=133	=133	=133	=133	=133
4AA-'<\ 4AAA-\	4g]	4c< 4A-<	.	.
4A-'<\ 4AA-\	4f	4c<	.	.
4BB-'<\ 4BBB-\	4g	4dn< 4G<	.	.
4C'<\ 4CC\	4c	4A-< 4E-<	.	.
=134	=134	=134	=134	=134
4GG'<\ 4GGG\	4e-	4B-< 4E-<	.	.
4AA-'<\ 4AAA-\	2e-	4c< 4E-<	.	.
4FF'<\ 4FFF\	.	4A-<	.	.
4BB-'<\ 4BBB-\	4dn	4B-< 4F<	.	.
!!LO:LB:g=original
=135	=135	=135	=135	=135
4E-'</ 4EE-/	4ryy	4B- 4G)	.	.
4F'</ 4FF/	2b-^>	4a- 4dn	.	.
4G'</ 4GG/	.	4g 4e-	.	.
4C'</ 4CC/	4gg'>	4ee- 4a-	.	.
=136	=136	=136	=136	=136
4Dn'</ 4DDn/	4ff	4b- 4a-	.	.
4c'>\ 4C\	4ee-	4a- 4e-	.	.
4B-'>\ 4BB-\	4ddn	4b- 4f	.	.
4A-'>\ 4AA-\	8ccL	4f 4dn	.	.
.	8ddJ	.	.	.
=137	=137	=137	=137	=137
4G'</ 4GG/	8cc	4e-	.	.
.	[4.b-	.	.	.
4F'</ 4FF/	.	4a- 4dn	.	.
4E-'</ 4EE-/	4b-]	4g 4e-	.	.
4C'</ 4CC/	4gg	4ee- 4a-	.	.
=138	=138	=138	=138	=138
4Dn'</ 4DDn/	4ff	4b- 4a-	.	.
4c'>\ 4C\	4ee-	4a- 4e-	.	.
4B-'>\ 4BB-\	4ddn	4b- 4f	.	.
4A-'>\ 4AA-\	8ee-L 8cc	4f	.	.
.	8ffJ 8dd	.	.	.
=139	=139	=139	=139	=139
4A-'>\ 4AA-\	4b-	4f	.	.
4G'</ 4GG/	8ccL	4e-	.	.
.	8b-J	.	.	.
4G'</ 4GG/	4ee-	4b- 4e-	.	.
4Dn'</ 4DDn/	4ff	4b- 4f	.	.
!!LO:LB:g=original
=140	=140	=140	=140	=140
!	!LO:TX:t=P:slur begins at the barline:problem	!	!	!
4E-'</ 4EE-/	(4gg	4b- 4g	.	.
4BB-'</ 4BBB-/	2gg	4ddn 4g	.	.
4C'</ 4CC/	.	4ee- 4g	.	.
4GG'</ 4GGG/	[4gg	4dd 4b-	.	.
=141	=141	=141	=141	=141
4AA-'</ 4AAA-/	4gg]	4cc 4a-	.	.
4A-'\ 4AA-\	4ff	4cc 4a-	.	.
4B-'\ 4BB-\	4gg	4ddn 4g	.	.
4c'\ 4C\	4cc	4a- 4e-	.	.
=142	=142	=142	=142	=142
4G'>\ 4GG\	4ee-	4b- 4e-	.	.
4A-'>\ 4AA-\	2ee-	4cc 4e-	.	.
4F'>\ 4FF\	.	4a- 4e-	.	.
4B-'>\ 4BB-\	4ddn 4b-	4a- 4dn	.	.
*	*v	*v	*	*
=143	=143	=143	=143
!	!	!	!LO:DY:rj
*ped	*Xtuplet	*	*
4AAn/ 4AAAn/	8dd#X^</ 8bn/ 8f#X/ 8d#X/)	.	f
.	8r	.	.
4rFF	(>12F#X<L	.	.
.	12Bn<	.	.
.	12enJ	.	.
2rC	12d#XL	.	.
.	12c#X	.	.
.	12BJ	.	.
.	12f#L>	.	.
.	12b	.	.
.	12eenJ	.	.
!!LO:PB:g=original
=144	=144	=144	=144
*^	*	*	*
4f#X^>\ 4d#X\ 4Bn\ 4An\	2ryy	12dd#XL	.	.
.	.	12cc#X	.	.
.	.	12bnJ	.	.
4r	.	12ff#XL	.	.
.	.	12bbn	.	.
.	.	12eeenJ	.	.
*clefG2	*	*8va	*	*
(4.ff#^>	2dd#X 2bn 2an	12ddd#XL	.	.
.	.	12ccc#X	.	.
.	.	12bbnJ	.	.
.	.	12fff#XL	.	.
.	.	12bbbn	.	.
8gg#X	.	.	.	.
.	.	12eeeenJ	.	.
*v	*v	*	*	*
=145	=145	=145	=145
8ff#X 8dd# 8bn 8an)	8dddd#X)	.	.
*	*X8va	*	*
!	!LO:TX:a:t=loco	!	!
8r	8r	.	.
*clefF4	*	*	*
4rGG	(>12F#X<L	.	.
.	12Bn<	.	.
.	12enJ	.	.
4AAn'</ 4AAAn/	12d#XL	.	.
.	12c#X	.	.
.	12BnJ	.	.
4r	12f#XL>	.	.
.	12bn	.	.
.	12eenJ	.	.
!!LO:LB:g=original
=146	=146	=146	=146
*^	*	*	*
4f#X^>\ 4d#X\ 4Bn\ 4An\	2ryy	12dd#XL	.	.
.	.	12cc#X	.	.
.	.	12bnJ	.	.
4r	.	12ff#XL	.	.
.	.	12bbn	.	.
.	.	12eeenJ	.	.
*clefG2	*	*8va	*	*
(4.ff#^>	2dd#X 2bn 2an	12ddd#XL	.	.
.	.	12ccc#X	.	.
.	.	12bbnJ	.	.
.	.	12fff#XL	.	.
.	.	12bbbn	.	.
8gg#X	.	.	.	.
.	.	12eeeenJ	.	.
*v	*v	*	*	*
=147	=147	=147	=147
8ff#X\ 8dd#X\ 8cc\ 8an\)	8dddd#X)	.	.
*Xped	*X8va	*	*
.	.	.	.n
!	!LO:TX:a:t=loco	!	!
8r	8r	.	.
*clefF4	*	*	*
4rGG	(>12G-X<L>	.	.
.	12c	.	.
.	12fnJ	.	.
*ped	*	*	*
4AAn 4AAAn	12e-L	.	.
.	12d-X	.	.
.	12cJ	.	.
4r	12g-XL>	.	.
.	12cc	.	.
.	12ffJ	.	.
!!LO:LB:g=original
=148	=148	=148	=148
*^	*	*	*
2ryy	4g-X^>\ 4e-\ 4c\ 4An\	12ee-L	.	.
.	.	12dd-	.	.
.	.	12ccJ	.	.
.	4r	12gg-XL	.	.
.	.	12ccc	.	.
.	.	12fffJ	.	.
*clefG2	*	*8va	*	*
(4.gg-X	2ee- 2cc 2an	12eee-L	.	.
.	.	12ddd-	.	.
.	.	12cccJ	.	.
.	.	12ggg-XL	.	.
.	.	12cccc	.	.
8aa-X	.	.	.	.
.	.	12ffffJ	.	.
*v	*v	*	*	*
=149	=149	=149	=149
8gg-X) 8ee- 8cc 8an	8eeee-)	.	.
*Xped	*	*	*
.	.	.	.
!	!LO:TX:a:t=loco	!	!
8r	8r	.	.
*clefF4	*X8va	*	*
4rGG	(>12G-X<L>	.	.
.	12c	.	.
.	12fJ	.	.
*ped	*	*	*
4AA-X'< 4AAA-X	12e-L	.	.
.	12d-	.	.
.	12cJ	.	.
4r	12g-XL<	.	.
.	12cc	.	.
.	12ffJ	.	.
!!LO:LB:g=original
=150	=150	=150	=150
*^	*	*	*
2ryy	4g-X 4c 4A- 4G-X	12ee-L	.	.
.	.	12dd-	.	.
.	.	12ccJ	.	.
.	4r	12gg-XL	.	.
.	.	12ccc	.	.
.	.	12fffJ	.	.
*clefG2	*	*8va	*	*
4.gg-X	2cc 2a- 2g-X	12eee-L	.	.
.	.	12ddd-	.	.
.	.	12cccJ	.	.
.	.	12ggg-L	.	.
.	.	12cccc	.	.
8aa-	.	.	.	.
.	.	12ffffJ	.	.
*v	*v	*	*	*
=151	=151	=151	=151
4gg-X 4cc 4a- 4g-X	12eeee-L	.	.
.	12cccc	.	.
.	12aaa-J	.	.
4r	12ggg-XL	.	.
.	12eee-	.	.
.	12cccJ	.	.
*	*X8va	*	*
!	!LO:TX:a:t=loco	!	!
2r	12aa-L	.	.
.	12gg-X	.	.
.	12ee-J	.	.
.	12ccL>	.	.
.	12a-	.	.
.	12g-J	.	.
*clefF4	*	*	*
=152	=152	=152	=152
2rC	12e-L	.	.
.	12c	.	.
.	12A-<J	.	.
.	12G-X<L	.	.
.	12E-<	.	.
.	12C<J	.	.
4rCC	12AA-<L	.	.
.	12GG-X<	.	.
.	12EE-<J)	.	.
*Xtuplet	*	*	*
*Xped	*	*	*
.	.	.	.
!LO:TX:t=P:diminuendolike accent:problem	!	!	!
12BBB--^<L<	4r<	.	.
12CC-X	.	.	.
12BBB--J	.	.	.
!!LO:PB:g=original
=153	=153	=153	=153
!LO:TX:t=P:here the slur ends, prblem with N:problem	!	!	!
*ped	*	*	*
4AAA-'</	4r	.	.
4r	4r	.	.
!	!	!	!LO:DY:rj
4a- 4A-	4aaa- 4aa-	.	ff
4A- 4AA-	4aa- 4a-	.	.
=154	=154	=154	=154
[2AA-\ [2AAA-\	(>[2a- [>2A-<	.	>
4..AA-\] 4..AAA-\]	4..a-] 4..A-<]	.	.
*Xped	*	*	*
.	.	.	.
16GG\ 16GGG\	16g 16G<	.	]]
=155	=155	=155	=155
*^	*	*	*
*ped	*	*	*	*
4GG\ 4GGG\	2rFyy	4g'> 4G<)	.	.
4rCC	.	(>2G<^>	.	.
!LO:N:vis=3	!	!	!	!LO:DY:b=2:rj
(<12BBBnL<	2BBBn	.	.	p
12GG	.	.	.	.
12AA-J	.	.	.	.
12GGL<	.	[>4Dn<^>	.	.
12AA-	.	.	.	.
12GGJ	.	.	.	.
*Xped	*	*	*	*
=156	=156	=156	=156	=156
*ped	*	*	*	*
!LO:N:vis=3	!	!	!	!
12CCL<	2CC\	8DnX</]	.	.
12GG	.	.	.	.
.	.	4E-<^>	.	<
12AA-J	.	.	.	.
12GGL>	.	.	.	.
12AA-	.	.	.	.
*Xped	*	*	*	*
.	.	4e-	.	.
12GGJ	.	.	.	.
*ped	*	*	*	*
12CCL>	2ryy	.	.	.
12AA-	.	.	.	.
.	.	4dn	.	.
12E-J	.	.	.	.
12AA-L>	.	.	.	.
12E-	.	.	.	.
.	.	[8c	.	.
*Xped	*	*	*	*
12AA-J	.	.	.	[
*v	*v	*	*	*
!!LO:LB:g=original
=157	=157	=157	=157
*ped	*	*	*
12DDnL>	8c]	.	.
12AA-	.	.	.
!	!LO:TX:b:i:t=cresc._:problem:dynamics with extention lines	!	!
!	!	!	!LO:HP:i:t=cresc.
.	4B-	.	<
12FJ	.	.	.
12AA-L>	.	.	.
12F	.	.	.
*Xped	*	*	*
.	8qd-/	.	.
.	4c-X	.	.
12AA-J	.	.	.
*ped	*	*	*
12DDnL>	.	.	.
12BB-	.	.	.
.	[4B-	.	.
12FJ	.	.	.
12BB-L>	.	.	.
12F	.	.	.
.	16B-L]	.	.
12BB-J	.	.	.
*Xped	*	*	*
.	16F<J	.	.
=158	=158	=158	=158
*ped	*	*	*
12EE-L<	8F<L	.	.
12BB-	.	.	.
.	8G-X<J)	.	.
12GJ	.	.	.
12BB-L<	8r	.	.
12G	.	.	.
*Xped	*	*	*
.	(>4b-	.	.
12BB-J	.	.	.
*ped	*	*	*
12EE-L>	.	.	.
12C-X	.	.	.
.	4a-/	.	.
12GJ	.	.	.
12C-L<	.	.	.
12G	.	.	.
.	[8g-X/	.	.
*Xped	*	*	*
12CnJ	.	.	.
=159	=159	=159	=159
*ped	*	*	*
12AAnL<	8g-X/]	.	.
12E-	.	.	.
.	4f/	.	.
12cJ	.	.	.
12E-L<	.	.	.
12c	.	.	.
*Xped	*	*	*
.	8qa-/	.	.
.	4g-/	.	.
12E-J	.	.	.
*ped	*	*	*
12AAL<	.	.	.
12F	.	.	.
.	4f/	.	.
12cJ	.	.	.
12FL<	.	.	.
12c	.	.	.
.	8e-/	.	.
*Xped	*	*	*
12G-XJ)	.	.	.
!!LO:LB:g=original
=160	=160	=160	=160
*ped	*	*	*
(12BB-L	8e-L	.	.
12F	.	.	.
.	8dnJ)	.	.
12A-	.	.	.
12c-X	8r	.	[
!	!LO:TX:b:i:t=cresc._:problem:dynamics with extention lines	!	!
!	!	!	!LO:HP:i:t=cresc.
12A-	.	.	<
.	(>8cc-X/ 8a-/	.	.
*Xped	*	*	*
12FJ)	.	.	.
*ped	*	*	*
(12BB-L	8b-L 8g-X	.	.
12G-X	.	.	.
.	8a-X 8f	.	.
12An	.	.	.
12cn	8g- 8e-	.	.
12A	.	.	.
.	8ee-J 8ccn	.	.
*Xped	*	*	*
12G-J)	.	.	.
=161	=161	=161	=161
*ped	*	*	*
(12BB-XL	8ddnL 8bn	.	.
12F	.	.	.
.	8fJ 8dn)	.	.
12A-X	.	.	.
12c-X	8r	.	.
12A-	.	.	.
.	(>8cc-X/ 8a-/	.	.
*Xped	*	*	*
12FJ)	.	.	.
*ped	*	*	*
(12BB-L	8b-XL 8g-X	.	.
12G-X	.	.	.
.	8a-X 8f	.	.
12An	.	.	.
12cn	8g- 8e-	.	.
12A	.	.	.
.	8ee-J 8ccn	.	.
*Xped	*	*	*
12G-J)	.	.	.
=162	=162	=162	=162
*ped	*	*	*
(12BB-L	8ddnL> 8b-	.	.
12F	.	.	.
.	8fJ 8dn)	.	.
12B-	.	.	.
12dn	8r	.	.
12B-	.	.	.
.	(8gg-X 8ee-	.	.
12FJ)	.	.	.
(12BB-L	8ffL 8ddn	.	.
12F	.	.	.
.	8b-J 8f)	.	.
12B-	.	.	.
12d	8r	.	.
12B-	.	.	.
.	(>8bb- 8gg-	.	.
12FJ)	.	.	.
!!LO:LB:g=original
=163	=163	=163	=163
(12BB-L	8bb- 8ff	.	.
12F	.	.	.
.	4bb- 4b-	.	.
12B-	.	.	.
12dn	.	.	.
12B-	.	.	.
.	4bb- 4b-	.	.
12FJ)	.	.	.
(12BB-L	.	.	.
12F	.	.	.
.	4bb- 4b-	.	.
12B-	.	.	.
12d	.	.	.
12B-	.	.	.
.	8bb- 8b-	.	.
*Xped	*	*	*
12FJ)	.	.	.
=164	=164	=164	=164
*ped	*	*	*
(12GG-XL	8bb-L 8gg-X	.	.
12d-X	.	.	.
.	8ccc-X 8dd-	.	[
.	.	.	<
12G-XJ)	.	.	.
(12D-L	8cccn 8gg-	.	.
12d-	.	.	.
*Xped	*	*	*
.	8ddd-J 8dd-	.	.
12G-J)	.	.	.
*ped	*8va	*	*
(12AA-L	8eee-L 8ff	.	.
12d-	.	.	.
.	8ddd- 8ccc-X	.	.
12FJ)	.	.	.
.	[<8qccc-/	.	.
(12D-L	8.bbb- 8.ccc-]	.	.
12d-	.	.	.
12FJ)	.	.	.
*Xped	*	*	*
.	16aaa-Jk 16ddd-	.	[[
=165	=165	=165	=165
*	*^	*	*
*ped	*	*	*	*
12BB-L	2.ryy	8aaa-L 8bb-	.	.
12d-	.	.	.	.
.	.	8ggg-XJ 8ddd-	.	.
*Xped	*	*	*	*
12G-XJ	.	.	.	.
*	*	*tuplet	*	*
!	!	!LO:TUP:a	!	!
*ped	*	*	*	*
12BB-L	.	12fffL 12aa-	.	.
12dn	.	12eee- 12gg-X	.	.
*Xped	*	*	*	*
12A-J	.	12dddnJ 12ff	.	.
*ped	*	*	*	*
12E-L	.	8fffL 8aa-	.	.
12g-X	.	.	.	.
.	.	16r	.	.
12B-J	.	.	.	.
*Xped	*	*	*	*
.	.	16eee-Jk 16gg-	.	.
*	*tuplet	*	*	*
!	!LO:TUP:a	!	!	!
*ped	*	*	*	*
12AA-L	12eee-L	8gg-L	.	.
12g-	12ddd-X	.	.	.
.	.	8aa-J	.	.
*Xped	*	*	*	*
12A-J	12cccnJ	.	.	.
*	*X8va	*	*	*
*	*v	*v	*	*
!!LO:PB:g=original
=166	=166	=166	=166
!	!LO:TX:a:t=loco	!	!
*ped	*	*	*
12D-L	8eee-L 8ff	.	.
12f	.	.	.
.	8ddd- 8aa-	.	.
*Xped	*	*	*
12A-J	.	.	.
*ped	*	*	*
12G-XL	8ccc-X 8ff-X	.	.
12f-X	.	.	.
.	8bb-J 8gg-X	.	.
*Xped	*	*	*
12B-J	.	.	.
*ped	*	*	*
12C-XL	8ddd-L 8ee-	.	.
12e-	.	.	.
.	8ccc- 8gg-	.	.
12c-XJ	.	.	.
12A-L	8.bb- 8.cc-X	.	.
12e-	.	.	.
*Xped	*	*	*
12c-J	.	.	.
.	16aa-Jk 16ee-	.	.
=167	=167	=167	=167
*	*^	*	*
*ped	*	*	*	*
12D-L	2.ryy	8aa-L 8b-	.	.
12d-	.	.	.	.
.	.	8gg-X 8dd-	.	.
12B-J	.	.	.	.
12G-XL	.	8ffn 8g-X	.	.
12d-	.	.	.	.
*Xped	*	*	*	*
.	.	8ee-J 8b-	.	.
12B-J	.	.	.	.
*ped	*	*	*	*
!LO:TX:t=P:mixed beam:problem	!	!	!	!
12DD-/L	.	8dd-L 8f	.	.
12c-X\	.	.	.	.
.	.	8ddn 8cc-X	.	.
12F\J	.	.	.	.
12D-L	12ffL	8f	.	.
12c-	12ee-	.	.	.
.	.	8a-J	.	.
*Xped	*	*	*	*
12FJ	12cc-J	.	.	.
*	*v	*v	*	*
=168	=168	=168	=168
*ped	*	*	*
12GG-XL	8b-L 8g-X	.	<
12B-	.	.	.
.	8cc-X 8d-	.	.
12G-XJ	.	.	.
12D-L	8ccn 8g-	.	.
12B-	.	.	.
.	8dd-J 8d-	.	.
*Xped	*	*	*
12G-J	.	.	.
*ped	*	*	*
12AA-L	8ee-L 8f	.	.
12c-X	.	.	.
.	8dd- 8cc-X	.	.
12FJ	.	.	.
.	[<8qcc-/	.	.
12D-L	8.bb- 8.cc-]	.	.
12d-	.	.	.
12FJ	.	.	.
*Xped	*	*	*
.	16aa-Jk 16dd-	.	[
!!LO:LB:g=original
=169	=169	=169	=169
*	*^	*	*
*ped	*	*	*	*
12BB-L	2.ryy	8aa-L 8b-	.	.
12d-	.	.	.	.
.	.	8gg-XJ 8dd-	.	.
*Xped	*	*	*	*
12G-XJ	.	.	.	.
!	!	!LO:TUP:a	!	!
*ped	*	*	*	*
12BB-L	.	12ffL 12a-	.	.
12dn	.	12ee- 12g-	.	.
*Xped	*	*	*	*
12A-J	.	12ddnJ 12f	.	.
*ped	*	*	*	*
12E-L	.	8ffL 8a-	.	.
12e-	.	.	.	.
.	.	16ra	.	.
12B-J	.	.	.	.
*Xped	*	*	*	*
.	.	16ee-Jk 16g-	.	.
*ped	*	*	*	*
12AA-L	12ee-L	8g-L	.	.
12e-	12dd-X	.	.	.
.	.	8a-J	.	.
*Xped	*	*	*	*
12A-J	12ccJ	.	.	.
*	*v	*v	*	*
=170	=170	=170	=170
*ped	*	*	*
12D-L	8ee-L< 8f	.	.
12d-	.	.	.
.	8dd- 8a-	.	.
*Xped	*	*	*
12A-J	.	.	.
*ped	*	*	*
12GG-XL	8cc-X 8f-X	.	.
12d-	.	.	.
.	8b-J 8g-X	.	.
*Xped	*	*	*
12G-XJ	.	.	.
*ped	*	*	*
12C-XL	8dd-L 8e-	.	.
12c-	.	.	.
.	8cc- 8g-	.	.
12G-J	.	.	.
12CC-XL<	8b- 8c-X	.	.
12A-	.	.	.
.	8a-J 8e-	.	.
*Xped	*	*	*
12E-J	.	.	.
=171	=171	=171	=171
*ped	*	*	*
12DD-L>	8a-L 8B-	.	.
12G-X	.	.	.
.	8g-X 8d-	.	.
12D-J	.	.	.
12BB-L>	8f 8G-X	.	.
12G-	.	.	.
*Xped	*	*	*
.	8g-J 8B-	.	.
12D-J	.	.	.
*ped	*	*	*
12DD-L>	8gnL 8c-X	.	.
12F	.	.	.
.	8a- 8d-	.	.
12D-J	.	.	.
12AA-L>	8b- 8c-	.	.
12F	.	.	.
*Xped	*	*	*
.	8cc-J 8d-)	.	.
12D-J	.	.	.
!!LO:LB:g=original
=172	=172	=172	=172
!	!LO:TX:t=P:rendering:slur:problem	!	!
.	(>8qG-X</	.	.
*ped	*Xtuplet	*	*
2E-\ 2CC\	(>12b--L)	.	f
.	.	.	>
.	12g-i	.	.
.	12e-J	.	.
.	12A-<L	.	.
.	12B--<	.	.
.	12G-X<J	.	]
*Xped	*	*	*
4AA-\ 4DD-\	12F<L	.	.
.	12A-<	.	.
.	12c<J	.	.
4r	12e--L	.	.
.	12d-	.	.
.	12dd-J)	.	.
=173	=173	=173	=173
!	!LO:TX:t=P:rendering:slur:problem	!	!
.	(>8qG-X</	.	.
*ped	*Xtuplet	*	*
2E-\ 2CC\	(>12b--L)	.	>
.	.	.	.
.	12g-i	.	.
.	12e-J	.	.
.	12A-<L	.	.
.	12B--<	.	.
*Xped	*	*	*
.	12G-y<J	.	]
4AA-\ 4DD-\	12F<L	.	.
.	12A-<	.	.
.	12c<J	.	.
4r	12e--L	.	.
.	12d-	.	.
.	12dd-J	.	.
=174	=174	=174	=174
*ped	*	*	*
!	!	!LO:TX:b:i:t=cresc._:problem:dynamics with extention lines	!
!	!	!	!LO:HP:i:t=cresc.
4A-\ 4D-\ 4FF\	12b--L	.	<
.	12a-	.	.
.	12aa-J	.	.
4d-\ 4F\ 4AA-\	12ee--L	.	.
.	12dd-	.	.
.	12ddd-J	.	.
*	*8va	*	*
4f\ 4A-\ 4D-\	12bb--XL	.	.
.	12aa-	.	.
.	12aaa-J	.	.
*clefG2	*	*	*
4a-/ 4d-/ 4F/	12eee--L	.	.
.	12ddd-	.	[
.	12ffffJ	.	.
!!LO:LB:g=original
=175	=175	=175	=175
4dd-/ 4f/ 4A-/	12dddd-L	.	.
.	12aaa-	.	.
.	12fffJ	.	.
*	*X8va	*	*
!	!LO:TX:a:t=loco	!	!
4r	12ddd-L	.	.
.	12aa-	.	.
.	12ffJ	.	.
*clefF4	*	*	*
!LO:TX:t=P:clefF4 after 2r:problem	!	!	!
2r	12dd-L<	.	.
.	12a-	.	.
.	12fJ	.	.
.	12d-<L	.	.
.	12A-<	.	.
.	12F<J)	.	.
*Xped	*	*	*
=176	=176	=176	=176
!	!LO:TX:t=P:rendering:slur:problem	!	!
.	(>8qA-</	.	>
*ped	*	*	*
2F/ 2C-X/ 2DDn/	(>12cc-XL)	.	.
.	12a-	.	.
.	12fJ	.	.
.	12B-<L	.	.
.	12c-X<	.	.
.	12A-<J	.	.
*Xped	*	*	*
.	.	.	.
4BB-\ 4EE-\	12Gn<L	.	]
.	12B-<	.	.
.	12dnJ	.	.
4r	12f-XL	.	.
.	12e-	.	.
.	12ee-J)	.	.
=177	=177	=177	=177
!	!LO:TX:t=P:rendering:slur:problem	!	!
.	(>8qA-</	.	.
*ped	*	*	*
2F/ 2C-X/ 2DDn/	(>12cc-XL)	.	>
.	12a-	.	.
.	12fJ	.	.
.	12B-<L	.	.
.	12c-X<	.	.
*Xped	*	*	*
.	12A-<J	.	.
4BB-\ 4EE-\	12G<L	.	]
.	12B-<	.	.
.	12dnJ	.	.
4r	12f-XL	.	.
.	12e-	.	.
.	12ee-J)	.	.
!!LO:PB:g=original
=178	=178	=178	=178
*ped	*	*	*
4B- 4E- 4GG	12cc-XL	.	.
.	12b-	.	.
.	12bb-J	.	.
4e- 4G 4BB-	12ff-XL	.	.
.	12ee-	.	.
.	12eee-J	.	.
*	*8va	*	*
4g 4B- 4E-	12ccc-XL	.	.
.	12bb-	.	.
.	12bbb-J	.	.
*clefG2	*	*	*
4b- 4e- 4G	12fff-XL	.	.
.	12eee-	.	.
.	12eeee-J	.	.
=179	=179	=179	=179
4ee- 4g 4B-	12bbb-L	.	.
.	12ggg	.	.
.	12eee-J	.	.
*	*X8va	*	*
!	!LO:TX:a:t=loco	!	!
4r	12bb-L	.	.
.	12gg	.	.
.	12ee-J	.	.
4r	12b-L	.	.
.	12g	.	.
.	12e-J	.	.
*clefF4	*	*	*
12rFF	12B-<L	.	.
12rFF	12E-<J	.	.
[12EE-\	12rA<	.	.
*Xped	*	*	*
=180	=180	=180	=180
*^	*	*	*
*	*	*^	*	*
*	*	*	*^	*	*
1EE-_<	4EEE-\	4r	2.ryy	4ryy	.	.
.	[<2.BB-\	(12BB-<L	.	4ryy	.	.
.	.	12E-<	.	.	.	.
.	.	12A-<J	.	.	.	.
*Xtuplet	*	*	*	*	*	*
.	.	12G<L	.	12ryy	.	p
.	.	12F<	.	12ryy	.	.
.	.	12E-<J	.	[[<6.E-<\	.	.
.	.	12G<L	[<4G<\	.	.	.
.	.	12A-<	.	.	.	.
.	.	12c<J	.	12ryy	.	.
*	*	*	*v	*v	*	*
!!LO:LB:g=original
=181	=181	=181	=181	=181	=181
2ryy	4BB-] 4EE-]	2ryy	4B-</ 4G</] 4E-</]])	.	.
.	4r	.	4r	.	.
4.B-	[2E-	(4.b-	[2g [2e-	.	>
8c	.	8cc	.	.	.
*Xped	*	*	*	*	*
=182	=182	=182	=182	=182	=182
*	*	*	*^	*	*
4B-	4E-]	4b-)	4g] 4e-]	4ryy	.	]
4rDD	[4BB-\	2ryy	(12BB-<L>	4ryy	.	.
.	.	.	12E-<	.	.	.
.	.	.	12A-<J	.	.	.
*ped	*	*	*	*	*	*
2ryy	[2BB-] [2EE-	.	12G<L>	12ryy	.	.
.	.	.	12F<	12ryy	.	.
.	.	.	12E-<J	[[<6.E-<\	.	.
.	.	12G<L>	[<4G<\	.	.	.
.	.	[[<12B-<	.	.	.	.
.	.	12e-<J	.	12ryy	.	.
*	*	*	*v	*v	*	*
=183	=183	=183	=183	=183	=183
2ryy	4BB-\] 4EE-\]	2ryy	4B-<]] 4G<] 4E-<]])	.	.
.	4rC	.	4r	.	.
*clefG2	*	*	*	*	*
(>4.b-	[2e-	(4.bb-	[2gg [2ee-	.	>
.	.	.	.	.	.
8ee-	.	8eee-	.	.	.
*v	*v	*	*	*	*
=184	=184	=184	=184	=184
*^	*	*	*	*
*	*	*	*^	*	*
4b-)	4e-]	4bb-/)	4gg\] 4ee-\]	4ryy	.	]
.	.	.	.	.	.	.
*clefF4	*	*	*	*	*	*
4rDD	[<4BB-\	(12BB-<L	2ryy	4ryy	.	.
.	.	12E-<	.	.	.	.
.	.	12A-<J	.	.	.	.
*ped	*	*	*	*	*	*
2ryy	2BB-\_< [2EE-\	12G-X<L	.	12ryy	.	.
.	.	12F<	.	12ryy	.	.
!	!	!	!	!LO:TX:t=P:lack of beginning of ligature:problem	!	!
.	.	12E-<J	.	[[<6.E-<\	.	.
!	!	!	!LO:TX:t=P:lack of beginning of ligature:problem	!	!	!
.	.	12G-<L	[<4G-<\	.	.	.
.	.	12A-<	.	.	.	.
.	.	12c-X<J	.	12ryy	.	.
*v	*v	*	*	*	*	*
*	*	*v	*v	*	*
*	*v	*v	*	*
!!LO:LB:g=original
=185	=185	=185	=185
*^	*	*	*
*	*	*^	*	*
2ryy	4BB-] 4EE-]	4B-< 4G-X<] 4E-<]])	2ryy	.	.
.	4r	4r	.	.	.
(>4.B-	[2E-\	(4.b-	[2g-i [2e-	.	>
8c-X	.	8cc-X	.	.	.
*Xped	*	*	*	*	*
*v	*v	*	*	*	*
=186	=186	=186	=186	=186
*	*	*^	*	*
4B- 4E-])	4b-)	4g-i] 4e-]	4ryy	.	]
4BB-	(12BB-<L	2ryy	4rDD<	.	.
!	!LO:TX:a:i:t=slentando_:dur=4qe:ext=ud:problem:text with extention lines	!	!	!	!
.	12E-<	.	.	.	.
.	12A-<J	.	.	.	.
*ped	*	*	*	*	*
[<2BB-\ [2EE-\	12G-X<L	.	12ryy	.	.
.	12F<	.	12ryy	.	.
.	12E-<J	.	[[<6.E-<\	.	.
.	12G-<L	[<4G-<\	.	.	.
.	12B-<	.	.	.	.
.	12e-J	.	12ryy	.	.
*	*	*v	*v	*	*
=187	=187	=187	=187	=187
*^	*	*	*	*
4BB-\] 4EE-\]	2ryy	2ryy	4B-< 4G-X<] 4E-<]])	.	.
4r	.	.	4r	.	.
4.b->	2g-y>\ 2e->\	(4.bb-	2gg-i/ 2ee-/	.	<
8gg->	.	8ggg-X	.	.	.
*	*	*v	*v	*	*
*v	*v	*	*	*
=188	=188	=188	=188
*Xped	*	*	*
.	.	.	.
4gg-X>	4ggg-X/)	.	[
4rEE	(>12D-<L	.	.
.	12G-<i	.	.
.	12c-X<J	.	.
[<2GG-X\ [2GGG-X\	12B-<L	.	.
.	12G-<	.	.
.	12D-<J	.	.
.	12G-<L	.	.
.	12B-<	.	.
.	12e-J	.	.
!!LO:LB:g=original
=189	=189	=189	=189
1GG-X] 1GGG-X]	12d-L	.	.
.	12B-<	.	.
.	12G-X<J	.	.
!	!LO:TX:b:t=accell_:dur=7q:ext=ud:problem:text with extention lines	!	!
.	12B-L	.	.
.	12d-	.	.
.	12a-J	.	.
!	!LO:TX:i:t=accel._:dur=7q:ext=ud:problem:text with extention lines	!	!
.	12g-XL	.	.
.	12d-	.	.
.	12B-J	.	.
.	12d-L	.	.
.	12g-	.	.
.	12cc-XJ	.	.
=190	=190	=190	=190
[1B-: [1D-: [1GG-X:	12b-L	.	.
.	12g-X	.	.
.	12d-J	.	.
.	12g-L<	.	.
.	12b-	.	.
.	12ee-J	.	.
.	12dd-L	.	.
.	12b-	.	.
.	12g-J	.	.
.	12b-L	.	.
.	12dd-	.	.
.	12aa-J)	.	.
=191	=191	=191	=191
2B-] 2D-] 2GG-X]	12gg-XL	.	.
.	12dd-	.	.
.	12b-J	.	.
.	12dd-L	.	.
.	12gg-	.	.
.	12ccc-XJ	.	.
!	!LO:TX:b:i:t=dim._:problem:dynamics with extention lines	!	!
!	!	!	!LO:HP:i:t=dim
2r	12bb-L	.	>
.	12gg-	.	.
.	12dd-J	.	.
.	12gg-L	.	.
.	12bb-	.	.
.	12eee-J	.	]]
*clefG2	*	*	*
!!LO:LB:g=original
=192	=192	=192	=192
!LO:TX:t=P:vertical slur from 2b- to 2G-:problem	!	!	!
*	*8va	*	*
2b- 2d- 2G-X	12ddd-L	.	.
.	12bb-	.	.
.	12gg-XJ	.	.
.	12bb-L	.	.
.	12ddd-	.	.
.	12aaa-J	.	.
2r	12ggg-XL	.	.
.	12ddd-	.	.
.	12bb-J	.	.
.	12ddd-L	.	.
.	12ggg-	.	.
.	12cccc-XJ	.	.
=193	=193	=193	=193
1rdd	12bbb-L	.	.
.	12ggg-X	.	.
.	12ddd-J	.	.
.	12ggg-L	.	.
.	12bbb-	.	.
.	12eeee-J	.	.
.	12dddd-L	.	.
.	12bbb-	.	.
.	12ggg-J	.	.
.	12bbb-L	.	.
.	12dddd-	.	.
.	12eeee-J	.	.
=194	=194	=194	=194
2b-: 2d-: 2G-X:	12dddd-L	.	.
.	12bbb-	.	.
.	12ggg-XJ	.	.
!	!LO:TX:b:i:t=calando	!	!
.	12bbb-L	.	.
.	12dddd-	.	.
.	12eeee-J	.	.
2r	12dddd-L	.	.
.	12bbb-	.	.
.	12ggg-J	.	.
.	12bbb-L	.	.
.	12dddd-	.	.
.	12eeee-J	.	.
!!LO:PB:g=original
=195	=195	=195	=195
2b-: 2d-: 2B-:	12dddd-L	.	.
.	12bbb-	.	.
.	12ggg-XJ	.	.
.	12bbb-L	.	.
.	12dddd-	.	.
.	12eeee-J	.	.
2b-: 2d-: 2B-:	12dddd-L	.	.
.	12bbb-	.	.
.	12ggg-J	.	.
.	12bbb-L	.	.
.	12dddd-	.	.
.	12eeee-J	.	.
=196	=196	=196	=196
4b-/ 4d-/ 4G-X/	4dddd-	.	.
*	*X8va	*	*
!	!LO:TX:a:t=loco	!	!
!	!LO:TX:b:i:t=rall.	!	!
4r	4r	.	.
2r	2r	.	.
=197	=197	=197	=197
2g-X/ 2G-X/	2ggg-X 2gg-X	.	pp
*clefF4	*	*	*
2G-X/ 2GG-X/	2gg-y 2g-X	.	.
=198	=198	=198	=198
1GG-X;< 1GGG-X	1g-X;> 1G-X<	.	.
*kcancel	*kcancel	*	*
=199||	=199||	=199||	=199||
*k[f#c#g#d#a#]	*k[f#c#g#d#a#]	*	*
*M3/4	*M3/4	*	*
*	*	*	*
!!!OMD: Lento sostenuto.
!	!LO:S:s=1:note:problem:note-level slur	!	!
4BB\ 4BBB\	(>4f# 4d# 4F#<	.	.
!	!LO:S:s=1:note:problem:note-level slur	!	!
4BB\ 4BBB\	4d# 4B 4F#<)	.	.
8r	8r	.	.
8F# 8BB	(>8f# [8d#	.	.
=200	=200	=200	=200
*	*^	*	*
2F# 2BB	4b	2d#]	.	.
.	8a#L	.	.	.
.	8g#	.	.	.
8F# 8BB	8f#J)	8d#	.	.
16rC	16r	8ryy	.	.
16BB\ 16BBB\	(>16d# 16B< 16F#<	.	.	.
*	*v	*v	*	*
!!LO:LB:g=original
=201	=201	=201	=201
4BB\ 4BBB\	4d# 4B< 4F#<	.	.
8EEL<	8eL 8B< 8G#<	.	.
8BB	8d# 8B< 8F#<	.	.
8EE	8e 8B< 8G#<	.	.
8CC#J	8g#J 8e 8B	.	.
=202	=202	=202	=202
*^	*^	*	*
4E\	2FF#\	4c#	2A#</	.	.
8D#L<	.	8B#XL	.	.	.
8E	.	8c#	.	.	.
8.G#	4ryy	8.e	4A#</	.	.
16F#Jk	.	16d#Jk	.	.	.
=203	=203	=203	=203	=203	=203
4F# 4BB	4ryy	4d# 4B	4ryy	.	.
4G#/	2AA#X	8e#XL	4d#	.	.
.	.	8f#	.	.	.
*tuplet	*	*	*	*	*
!LO:TUP:b	!	!	!	!	!
(12E#XL>	.	8.g#	4c##X	.	.
.	.	.	.	.	.
12A#X	.	.	.	.	.
12E#J)	.	.	.	.	.
.	.	16a#J	.	.	.
*v	*v	*	*	*	*
=204	=204	=204	=204	=204
2A# 2D#	4g#	2d#	.	.
.	4f#)	.	.	.
4G#/ 4D#/ 4GG#/	(8.f#L	4B#X	.	.
.	16g#Jk	.	.	.
*	*v	*v	*	*
=205	=205	=205	=205
4C#\	4e 4c# 4G#<	.	.
8C#L<	8eL 8c# 8G#<	.	.
8GG#	8d#< 8Bn< 8G#<	.	.
8C#	8e 8c# 8G#<	.	.
8FF#J	8f#J 8c# 8A#<	.	.
=206	=206	=206	=206
4FF#\ 4FFF#\	4f# 4e 4A#< 4F#<)	.	.
!LO:TX:b:i:t=sempre	!	!	!
4BB\ 4BBB\	4d#< 4B< 4F#<	.	.
4B	(>4dd# 4f# 4d#	.	p
!!LO:LB:g=original
=207	=207	=207	=207
*^	*^	*	*
!	!LO:TX:b:i:t=legato	!	!	!	!
4ryy	4A#	2cc#	4f# 4c#	.	.
2B	4G#	.	2e	.	.
.	4Gn	4b	.	.	.
*v	*v	*	*	*	*
*	*v	*v	*	*
=208	=208	=208	=208
4c# 4F#	4a#	.	.
4G# 4E	4g# 4c#	.	.
4A# 4D#	4f##X 4d#	.	.
=209	=209	=209	=209
*	*^	*	*
4c# 4C#	2ee	4g# 4e	.	.
4cn 4Cn	.	4an 4e	.	.
4B 4BB	4dd# 4a 4e#X	4ryy	.	.
*	*v	*v	*	*
=210	=210	=210	=210
4A#X 4AA#X	4cc##X 4a# 4e#X	.	.
4An 4AAn	4cc#X 4f##X 4c#X	.	.
4G#/ 4GG#/	[4cc# 4g# [4en	.	.
=211	=211	=211	=211
*	*^	*	*
2Gn/ 2GGn/	4cc#] 4e]	2b	.	.
.	4cc##X 4e#X	.	.	.
4F#/ 4FF#/	4dd# 4a# 4d#	4ryy	.	.
*	*v	*v	*	*
=212	=212	=212	=212
4C##X 4CC##X	4ee#X 4a# 4g#	.	.
4D# 4DD#	4ff# 4a# 4f#	.	.
4G# 4GG#	4b 4g# 4d#	.	.
!!LO:LB:g=original
=213	=213	=213	=213
4BB 4BBB	4dd#/ 4g#/ 4d#/	.	.
4GG# 4GGG#	4b/ 4g#/ 4d#/	.	.
4AA# 4AAA#	4a#/ 4e#X/ 4c##X/	.	.
=214	=214	=214	=214
4DD# 4DDD#	4a# 4f# 4d#	.	.
2FF# 2FFF#	4a# 4en 4c#X	.	.
.	8qa#/	.	.
!	!LO:TX:t=P:arpeggio before 8qa#:problem	!	!
.	8.g#:L 8.e: 8.B:	.	.
.	16f#Jk 16e 16A#	.	.
=215	=215	=215	=215
*ped	*	*	*
4BB\ 4BBB\	4f# 4d# 4B< 4F#<)	.	.
4BB\ 4BBB\	4d#< 4B< 4F#<	.	.
8r	8r	.	.
8F# 8BB	(>8f# 8d#	.	.
=216	=216	=216	=216
4F# 4BB	4b 4d#	.	<
*Xped	*	*	*
8F##XL 8BB	8a#L 8d#	.	.
8G# 8BB	8g# 8d#	.	.
8AnJ 8BB	8f#J 8d#)	.	.
16r	16rf	.	[
!	!LO:TX:t=P:rendering:slur over upper staff:problem	!	!
16BB\	(>16d#< 16B< 16An<	.	.
=217	=217	=217	=217
4BB\	4d#< 4B< 4An<	.	.
8EEL<	8eL 8B< 8G#<	.	.
8BB	8d# 8B< 8F#<	.	.
8EE	8e 8B< 8G#<	.	.
8CC#J	8g#J 8e 8B<	.	.
=218	=218	=218	=218
*^	*^	*	*
4E\	2.FF#	4c#	2.A#</	.	.
8D#L<	.	8B#XL	.	.	.
8E	.	8c#	.	.	.
8.G#	.	8.e	.	.	.
16F#Jk	.	16d#Jk	.	.	.
!!LO:LB:g=original
=219	=219	=219	=219	=219	=219
4F#\ 4BB\	4ryy	4d# 4B<	4ryy	.	.
4G#/	2AA#	8e#XL	4d#	.	.
.	.	8f#	.	.	.
!LO:TUP:b	!	!	!	!	!
(12E#XL>	.	8.g#	4c##X	.	.
12A#X	.	.	.	.	.
12E#J)	.	.	.	.	.
.	.	16a#Jk	.	.	.
=220	=220	=220	=220	=220	=220
2ryy	2A# 2D#	8g#L	2d#	.	.
.	.	8gnJ	.	.	.
.	.	4f#)	.	.	.
!LO:TUP:a	!	!	!	!	!
(<12D#L	4GG#	(8.f#L	4B#X	.	.
12G#X	.	.	.	.	.
12D#J)	.	.	.	.	.
.	.	16g#iJk	.	.	.
*v	*v	*	*	*	*
*	*v	*v	*	*
=221	=221	=221	=221
4C#\	4e 4c# 4G#<	.	.
!	!LO:TX:a:i:t=ritenuto	!	!
8C#L<	8eL 8c# 8G#<	.	.
8GG#	8d# 8Bn< 8G#<	.	.
8C#	8e [8c# 8G#<	.	.
*ped	*	*	*
8FF#J	8f#J 8e 8c#] 8A#< 8F#<	.	.
=222	=222	=222	=222
!LO:S:s=1:note:problem:note-level slur	!	!	!
!LO:S:s=2:note:problem:note-level slur	!	!	!
(<2.FF#;< (<2.FFF#	2.f#; 2.e 2.c# 2.A#< 2.F#<)	.	.
*kcancel	*kcancel	*	*
!!LO:PB:g=original
=223||	=223||	=223||	=223||
*k[b-e-a-d-]	*k[b-e-a-d-]	*	*
*M2/2	*M2/2	*	*
*met(c|)	*met(c|)	*	*
!!!OMD: tempo primo
!	!	!	!LO:DY:rj
!LO:S:s=1:note:problem:note-level slur	!	!	!
!LO:S:s=2:note:problem:note-level slur	!	!	!
2GG-X\) 2GGG-X\)	4e- 4cn< 4An<	.	fz
*	*tuplet	*	*
!	!LO:TUP:a	!	!LO:DY:rj
.	(>12E-<L	.	f
.	12An<	.	.
.	12d-<J	.	.
*ped	*Xtuplet	*	*
4GG-'</ 4GGG-/	12cL	.	.
.	12B-	.	.
.	12AnJ	.	.
4r	12e-L	.	.
.	12an	.	.
.	12dd-J	.	.
=224	=224	=224	=224
*^	*	*	*
4c^>\ 4An\ 4G-X\ 4E-\	2ryy	12ccL	.	.
.	.	12b-	.	.
.	.	12anJ	.	.
4r	.	12ee-L	.	.
.	.	12aan	.	.
.	.	12ddd-J	.	.
*clefG2	*	*8va	*	*
(4.cc^>	2an 2g-X 2e-	12cccL	.	.
.	.	12bb-	.	.
.	.	12aaniJ	.	.
.	.	12eee-L	.	.
.	.	12aaani	.	.
8dd-	.	.	.	.
.	.	12dddd-J	.	.
*v	*v	*	*	*
=225	=225	=225	=225
8cc/ 8an/ 8g-X/ 8e-/)	8cccc)	.	.
*	*X8va	*	*
!	!LO:TX:a:t=loco	!	!
8r	8r	.	.
*clefF4	*	*	*
4rGG	(>12E-<L	.	.
.	12An<	.	.
.	12d-J	.	.
4GG-X'</ 4GGG-X/	12cL	.	.
.	12B-	.	.
.	12AnJ	.	.
4r	12e-L	.	.
.	12an	.	.
.	12dd-J	.	.
!!LO:LB:g=original
=226	=226	=226	=226
*^	*	*	*
2ryy	4e-^>\ 4An\ 4G-X\	12ccL	.	.
.	.	12b-	.	.
.	.	12anJ	.	.
.	4r	12ee-L	.	.
.	.	12aan	.	.
.	.	12ddd-J	.	.
*clefG2	*	*8va	*	*
(4.ee-^>	2an 2g-X	12cccL	.	.
.	.	12bb-	.	.
.	.	12aaniJ	.	.
.	.	12eee-L	.	.
.	.	12aaani	.	.
8ff	.	.	.	.
.	.	12dddd-J	.	.
*v	*v	*	*	*
=227	=227	=227	=227
8ee- 8an 8g-X)	8cccc)	.	.
*	*X8va	*	*
!	!LO:TX:a:t=loco	!	!
8r	8r	.	.
*Xped	*	*	*
.	.	.	.
*clefF4	*	*	*
4rFF	(>12F-X<L	.	.
.	12B-<	.	.
.	12e-J	.	.
*ped	*	*	*
4GG-X'< 4GGG-X	12d-L	.	.
.	12c-X	.	.
.	12B-J	.	.
4r	12f-XL<	.	.
.	12b-	.	.
.	12ee-J	.	.
=228	=228	=228	=228
*^	*	*	*
2ryy	4d-^> 4B- 4G-X 4F-X	12dd-L	.	.
.	.	12cc-X	.	.
.	.	12b-J	.	.
.	4r	12ff-XL	.	.
.	.	12bb-	.	.
.	.	12eee-J	.	.
*clefG2	*	*8va	*	*
(4.dd-^>	2b- 2g-X 2f-X	12ddd-L	.	.
.	.	12ccc-X	.	.
.	.	12bb-J	.	.
.	.	12fff-XL	.	.
.	.	12bbb-	.	.
8ee-	.	.	.	.
.	.	12eeee-J	.	.
*v	*v	*	*	*
!!LO:LB:g=original
=229	=229	=229	=229
8dd-/ 8b-/ 8g-X/ 8f-X/)	8dddd-)	.	.
*Xped	*	*	*
*	*X8va	*	*
!	!LO:TX:a:t=loco	!	!
8r	8r	.	.
*clefF4	*	*	*
4rFF	(>12F-X<L	.	.
.	12B-<	.	.
.	12e-J	.	.
*ped	*	*	*
4GG-X'</ 4GGG-X/	12d-L	.	.
.	12c-X	.	.
.	12B-J	.	.
4r	12f-XL>	.	.
.	12b-	.	.
.	12ee-J	.	.
=230	=230	=230	=230
*^	*	*	*
2ryy	4f-^> 4B- 4G-X 4F-X	12dd-L	.	.
.	.	12cc-X	.	.
.	.	12b-J	.	.
.	4r	12ff-XL	.	.
.	.	12bb-	.	.
.	.	12eee-J	.	.
*clefG2	*	*8va	*	*
(4.ff-^>	2b- 2g-X 2f-X	12ddd-L	.	.
.	.	12ccc-X	.	.
.	.	12bb-J	.	.
.	.	12fff-XL	.	.
.	.	12bbb-	.	.
8gg-	.	.	.	.
.	.	12eeee-J	.	.
*v	*v	*	*	*
=231	=231	=231	=231
4ff-X 4b- 4g-X 4f-X)	12dddd-L	.	.
.	12bbb-	.	.
.	12ggg-XJ	.	.
4r	12fff-XL	.	.
.	12ddd-	.	.
.	12bb-J	.	.
*	*X8va	*	*
!	!LO:TX:a:t=loco	!	!
2r	12gg-XL	.	.
.	12ff-X	.	.
.	12dd-J	.	.
.	12b-L	.	.
.	12g-X	.	.
.	12f-XJ	.	.
*clefF4	*	*	*
!!LO:LB:g=original
=232	=232	=232	=232
2rAA	12d-L	.	.
.	12B-<	.	.
.	12G-X<J	.	.
.	12F-X<L	.	.
.	12D-<	.	.
.	12BB-<J	.	.
4rAAA	12GG-X<L	.	.
.	12FF-X<	.	.
*Xped	*	*	*
.	12DD-<J	.	.
*Xtuplet	*	*	*
!LO:TX:t=P:diminuendolike accent direct above 12AAA-:problem	!	!	!
12AAA--^<L<	4r<)	.	.
12BBB--	.	.	.
12AAA--J	.	.	.
=233	=233	=233	=233
*ped	*	*	*
!LO:TX:t=P:here the slur ends, problem with N:problem	!	!	!
4GGG-X/	2r	.	.
4r	.	.	.
!	!	!	!LO:DY:rj
4g-X^> 4G-X	4ggg-X^> 4gg-X	.	ff
4G-^>/ 4GG-/	4gg-^> 4g-X	.	.
=234	=234	=234	=234
[2GG-X\ [>2GGG-X\	[2g-X [>2G-X<	.	.
4..GG-\] 4..GGG-\]	4..g-] 4..G-<]	.	.
*Xped	*	*	*
.	.	.	.
16FF\ 16FFF\	16f 16F<	.	.
=235	=235	=235	=235
*^	*	*	*
*ped	*	*	*	*
8FF\ 8FFF\	2ryy	4f 4F<	.	.
8rEE	.	.	.	.
4rEE	.	2f^> 2F<	.	.
*tuplet	*	*	*	*
!LO:N:vis=3	!	!	!	!
!LO:TUP:a	!	!	!	!
(<12AAAnL<	2AAAn	.	.	.
12FF	.	.	.	.
12GG-XJ	.	.	.	.
*Xtuplet	*	*	*	*
!	!	!LO:TX:t=P:rendering:slur should be over upper stuff:problem	!	!
12FFL<	.	(>[4c<^> [>4C<	.	.
12GG-	.	.	.	.
12FFJ	.	.	.	.
!!LO:PB:g=original
=236	=236	=236	=236	=236
*ped	*	*	*	*
!LO:N:vis=3	!	!	!	!
12BBB-L<	2BBB-\	8c<] 8C<]	.	.
12FF	.	.	.	.
.	.	4d-<^> 4D-<	.	.
12GG-J	.	.	.	.
12FFL<	.	.	.	.
12GG-	.	.	.	>
.	.	4dd- 4d-	.	.
*Xped	*	*	*	*
12FFJ	.	.	.	.
!	!	!	!	!
!	!	!	!	!
*ped	*	*	*	*
12BBB-L<	2ryy	.	.	.
12GG-	.	.	.	.
.	.	4cc 4c	.	.
12D-J	.	.	.	.
12GGnL<	.	.	.	.
12D-	.	.	.	.
.	.	[<8b- [8B-	.	.
*Xped	*	*	*	*
12GGJ	.	.	.	]
*v	*v	*	*	*
=237	=237	=237	=237
*ped	*	*	*
12CCL<	8b-] 8B-]	.	.
12GG	.	.	.
.	4a- 4A-	.	.
12E-J	.	.	.
12AA-L<	.	.	.
12E-	.	.	.
*Xped	*	*	*
.	8qcc 8qc/	.	.
!	!LO:TX:b:i:t=cresc. _:problem:dynamics with extention lines	!	!
!	!	!	!LO:HP:i:t=cresc.
.	4b- 4B-	.	<
12AA-J	.	.	.
*ped	*	*	*
12CCL<	.	.	.
12AA-	.	.	.
.	4a- 4A-	.	.
12EnJ	.	.	.
12AA-L<	.	.	.
12E	.	.	.
.	[>8en [>8En<	.	.
*Xped	*	*	*
12AA-J	.	.	.
=238	=238	=238	=238
*ped	*	*	*
12DD-L	8enX] 8EnX<]	.	.
12AA-	.	.	.
.	4f 4F<	.	.
12FJ	.	.	.
12AA-L	.	.	.
12F	.	.	.
*Xped	*	*	*
.	4ff\ 4f\	.	.
12AA-J	.	.	.
*ped	*	*	*
12DD-L<	.	.	.
12AAn	.	.	.
.	4ee-X 4e-	.	.
12FJ	.	.	.
12AAL<	.	.	.
12F	.	.	.
.	[8dd- [8d-	.	[
*Xped	*	*	*
12BB-J	.	.	.
!!LO:LB:g=original
=239	=239	=239	=239
*ped	*	*	*
12EEnL>	8dd-] 8d-]	.	.
12BB-	.	.	.
.	4cc 4c	.	.
12GJ	.	.	.
12BB-L<	.	.	.
12G	.	.	.
.	8qee- 8qe-/	.	.
.	4dd- 4d-	.	.
*Xped	*	*	*
12BB-J	.	.	.
*ped	*	*	*
12EEL>	.	.	.
12C	.	.	.
.	4cc 4c	.	.
12GJ	.	.	.
12CL	.	.	.
12G	.	.	.
.	8b- 8B-	.	.
*Xped	*	*	*
12CJ)	.	.	.
=240	=240	=240	=240
(12FFL>	8b-L 8B-	.	.
12C	.	.	.
.	8anJ 8An)	.	.
12E-J	.	.	.
12AnL	8r	.	.
12E-	.	.	.
.	(>8gg-X 8ee- 8g-X	.	.
12CJ)	.	.	.
(12FFL>	8ffL 8dd- 8f	.	.
12D-	.	.	.
.	8ee-X 8cc	.	.
12EnJ	.	.	.
12B-L	8dd- 8b-	.	.
12E	.	.	.
!	!LO:TX:b:i:t=cresc. _:problem:dynamics with extention lines	!	!
!	!	!	!LO:HP:i:t=cresc.
.	8bb-J 8ggn	.	<
12D-J)	.	.	.
=241	=241	=241	=241
(12FFL>	8aanL 8ff	.	.
12C	.	.	.
.	8ccJ 8an)	.	.
12FJ	.	.	.
12AnL<	8r	.	.
12E-	.	.	.
.	(8gg-X 8ee- 8g-X	.	.
12CJ)	.	.	.
(12FFL>	8ffL 8dd- 8f	.	.
12D-	.	.	.
.	8ee-X 8cc	.	.
12EnJ	.	.	.
12d-L<	8dd- 8b-	.	.
12E	.	.	.
!	!LO:TX:t=P:slur ends at the barline:problem	!	!
.	8bb-J 8ggn)	.	.
12D-J)	.	.	[[
!!LO:LB:g=original
=242	=242	=242	=242
*ped	*	*	*
(12FFL>	8aanL 8ff	.	.
12C	.	.	.
.	8ccJ 8an	.	.
12FJ	.	.	.
12cL<	8r	.	.
12F	.	.	.
.	(8ddd- 8bb-	.	.
*Xped	*	*	*
12CJ)	.	.	.
*ped	*	*	*
(12FFL>	8cccL 8aa	.	.
12C	.	.	.
.	8ffJ 8cc)	.	.
12FJ	.	.	.
12cL<	8r	.	.
12F	.	.	.
.	(8fff 8ddd-	.	.
*Xped	*	*	*
12CJ)	.	.	.
=243	=243	=243	=243
*ped	*	*	*
(12FFL>	8fff 8ccc	.	.
12C	.	.	.
.	4fff 4ff	.	.
12FJ	.	.	.
12AnL	.	.	.
12c	.	.	.
.	4fff 4ff	.	.
12fJ	.	.	.
12anL	.	.	.
12f	.	.	.
.	4fff 4ff	.	.
12cJ	.	.	.
12AL	.	.	.
12F	.	.	.
.	8fff 8ff)	.	.
*Xped	*	*	*
12CJ)	.	.	[
=244	=244	=244	=244
*ped	*8va	*	*
!LO:TX:t=P:mixed beam:problem	!	!	!
(>12DD-/L	(>8fffL 8ddd-	.	.
12f\	.	.	.
.	8ggg-X 8aa-	.	.
12d-\J)	.	.	.
(>12A-L	8gggn 8ddd-	.	.
12a-	.	.	.
.	8aaa-J 8aa-	.	.
*Xped	*	*	*
12d-J)	.	.	.
*ped	*	*	*
(>12E-L	8bbb-L 8ccc	.	<
12g-X	.	.	.
.	8aaa- 8ggg-X	.	.
12cJ)	.	.	.
.	8qggg-/	.	.
(>12A-L	8.ffff 8.ggg-	.	.
12a-	.	.	.
12cJ)	.	.	.
*Xped	*	*	*
.	16eeee-Jk 16aaa-	.	[
!!LO:LB:g=original
=245	=245	=245	=245
*	*^	*	*
*ped	*	*	*	*
(>12FL	2.ryy	8eeee-L 8fff	.	.
12a-	.	.	.	.
.	.	8dddd-J 8aaa-	.	.
*Xped	*	*	*	*
12d-J)	.	.	.	.
*ped	*	*Xtuplet	*	*
!	!	!LO:TUP:a	!	!
(>12FL	.	12ccccL 12eee-	.	.
12an	.	12bbb- 12ddd-	.	.
*Xped	*	*	*	*
12e-J)	.	12aaanJ 12ccc	.	.
*clefG2	*	*	*	*
*ped	*	*	*	*
12B-L>	.	8ccccL 8eee-	.	.
12dd-	.	.	.	.
.	.	16rccc	.	.
*Xped	*	*	*	*
12fJ	.	.	.	.
.	.	16bbb-Jk 16ddd-	.	.
*clefF4	*	*	*	*
*ped	*Xtuplet	*	*	*
12E-L>	12bbb-L	8.ddd-L	.	.
*clefG2	*	*	*	*
12dd-	12aaa-X	.	.	.
!	!LO:SIC:s=ggg:v	!	!	!
12e-J	12ggg-J	.	.	.
*Xped	*	*	*	*
.	.	16eee-Jk	.	.
*	*v	*v	*	*
=246	=246	=246	=246
*ped	*	*	*
12A-L	8bcb-L 8ccc	.	.
12cc	.	.	.
.	8aaa- 8eee-	.	.
*Xped	*	*	*
12e-J	.	.	.
*ped	*	*	*
12d-L	8ggg-X 8ccc-X	.	.
12cc-X	.	.	.
.	8fffJ 8ddd-	.	.
*Xped	*	*	*
12fJ	.	.	.
*ped	*	*	*
12G-L	8aaa-L 8bb-	.	.
12b-	.	.	.
.	8ggg- 8ddd-	.	.
12e-J	.	.	.
12B-L	8fff 8gg-	.	.
12g-i	.	.	.
.	8eee-J 8bb-	.	.
*Xped	*	*	*
12e-J	.	.	.
*clefF4	*X8va	*	*
=247	=247	=247	=247
*	*^	*	*
*ped	*	*	*	*
!	!	!LO:TX:a:t=loco	!	!
12AA-L	2.ryy	8eee-L 8ff	.	.
12d-	.	.	.	.
.	.	8ddd- 8aa-	.	.
12A-J	.	.	.	.
12FL	.	8ccc 8dd-	.	.
12d-	.	.	.	.
.	.	8bb-J 8ff	.	.
*Xped	*	*	*	*
12A-J	.	.	.	.
*ped	*	*	*	*
12AA-L	.	8aa-L 8cc	.	.
12c	.	.	.	.
.	.	8aan 8gg-X	.	.
12G-XJ	.	.	.	.
*	*tuplet	*	*	*
12E-L	12cccL	8.cc	.	.
12g-	12bb-	.	.	.
12A-J	12gg-J	.	.	.
*Xped	*	*	*	*
.	.	16ee-Jk	.	.
*	*v	*v	*	*
!!LO:PB:g=original
=248	=248	=248	=248
*ped	*	*	*
12DD-L	8ffL 8dd-	.	.
12d-	.	.	.
.	8gg-X 8a-	.	.
12FJ	.	.	.
12AA-L	8ggn 8dd-	.	.
12A-	.	.	.
*Xped	*	*	*
.	8aa-J 8a-	.	.
12FJ	.	.	.
*ped	*	*	*
12EE-L<	8bb-L 8cc	.	.
12A-	.	.	.
.	8aa- 8gg-X	.	.
12CJ	.	.	.
.	8qgg-/	.	.
12AA-L	8.fff 8.gg-	.	.
12A-	.	.	.
12CJ	.	.	.
*Xped	*	*	*
.	16eee-Jk 16aa-	.	.
=249	=249	=249	=249
*	*^	*	*
*ped	*	*	*	*
12FFL<	2.ryy	8eee-L 8ff	.	.
12A-	.	.	.	.
.	.	8ddd-J 8aa-	.	.
*Xped	*	*	*	*
12D-J	.	.	.	.
*ped	*	*	*	*
*	*	*Xtuplet	*	*
12FFL	.	12cccL 12ee-	.	.
12An	.	12bb- 12dd-	.	.
*Xped	*	*	*	*
12E-J	.	12aanJ 12cc	.	.
*ped	*	*	*	*
12BB-L	.	8cccL 8ee-	.	.
12d-	.	.	.	.
.	.	16rdd	.	.
*Xped	*	*	*	*
12FJ	.	.	.	.
.	.	16bb-Jk 16dd-	.	.
*ped	*Xtuplet	*	*	*
12EE-L	12bb-L	8.dd-L	.	.
12d-	12aa-X	.	.	.
12E-J	12ggJ	.	.	.
*Xped	*	*	*	*
.	.	16ee-Jk	.	.
*	*v	*v	*	*
=250	=250	=250	=250
*ped	*	*	*
12AA-L	8bb-L 8cc	.	.
12c	.	.	.
.	8aa- 8ee-	.	.
*Xped	*	*	*
12G-XJ	.	.	.
*ped	*	*	*
12D-L	8gg-X 8cc-X	.	.
12c-X	.	.	.
.	8ffJ 8dd-	.	.
*Xped	*	*	*
12A-J	.	.	.
*ped	*	*	*
12GG-XL	8aa-L 8b-	.	.
12B-	.	.	.
.	8gg- 8dd-	.	.
*Xped	*	*	*
12E-J	.	.	.
*ped	*	*	*
12BB-L	8ff 8g-	.	.
12B-	.	.	.
.	8ee-J 8b-	.	.
*Xped	*	*	*
12E-J	.	.	.
!!LO:LB:g=original
=251	=251	=251	=251
*ped	*	*	*
12AA-L	8ffL< 8f	.	.
12A-	.	.	.
.	8ee- 8a-	.	.
12FJ	.	.	.
12D-L	8dd- 8d-	.	.
12A-	.	.	.
.	8b-J 8a-	.	.
*Xped	*	*	*
12FJ	.	.	.
*ped	*	*	*
!LO:TX:t=P:mixed beam:problem	!	!	!
12AAA-/L	8ccL 8c	.	.
12G-X\	.	.	.
.	8b- 8e-	.	.
12E-\J	.	.	.
12AA-L	8a- 8G-X	.	.
12c	.	.	.
.	8e-J 8A-)	.	.
*Xped	*	*	*
12G-J	.	.	.
=252	=252	=252	=252
!	!LO:TX:t=P:rendering:slur:problem	!	!
.	(>8qD-</	.	.
*ped	*Xtuplet	*	*
(<2GGGn/	(>12f-XL)	.	f>
.	12d-	.	.
.	12B-J	.	.
.	12E-<L	.	.
.	12F-X<	.	.
.	12D-<J	.	.
*Xped	*	*	*
.	.	.	.
4AAA-/)	12C<L	.	]
.	12E-<	.	.
.	12G<J	.	.
4rGG	12B--<L	.	.
.	12A-<	.	.
.	12a-J)	.	.
=253	=253	=253	=253
!	!LO:TX:t=P:rendering:slur:problem	!	!
.	(>8qE-</	.	>
*ped	*	*	*
(<2AAAn/	(>12g-XL)	.	.
.	12e-	.	.
.	12cJ	.	.
.	12F<L	.	.
.	12G-X<	.	.
.	12E-<J	.	.
4BBB-\)	12Dn<L	.	.
.	12F<	.	.
.	12An<J	.	]
4r	12c-XL	.	.
.	12B-	.	.
.	12b-J)	.	.
!!LO:LB:g=original
=254	=254	=254	=254
4Dn:/ 4BBB-:/	(>12g-XL<	.	.
.	12f	.	.
.	12ffJ	.	.
!	!	!	!
!	!	!	!
4dn:\ 4F:\ 4BB-:\	12cc-XL	.	.
!	!LO:TX:b:i:t=cresc. _:problem:dynamics with extention lines	!	!
!	!	!	!LO:HP:i:t=cresc.
.	12b-	.	<
.	12bb-J	.	.
4f:\ 4B-:\ 4D:\	12gg-XL	.	.
.	12ff	.	.
.	12fffJ	.	.
4a-\ 4d\ 4F\	12ccc-XL	.	.
.	12bb-	.	.
*	*8va	*	*
.	12ffffJ	.	.
*clefG2	*	*	*
=255	=255	=255	=255
4ddn:/ 4f:/ 4B-:/	12ddddnL	.	.
.	12bbb-	.	.
.	12fffJ	.	.
*	*X8va	*	*
!	!LO:TX:a:t=loco	!	!
4r	12dddnL	.	.
.	12bb-	.	.
.	12ffJ	.	.
4r	12ddnL	.	.
.	12b-	.	.
.	12fJ	.	.
*clefF4	*	*	*
12rGG	12B-<L	.	[
12rGG	12F<J	.	.
12BB-\	12rA<)	.	.
*Xped	*	*	*
=256	=256	=256	=256
!	!LO:TX:t=P:rendering:slur:problem	!	!
.	(>8qE-</	.	>
*ped	*	*	*
(<2C\ \2AAAn	(>12g-XL)	.	.
.	12e-	.	.
.	12cJ	.	.
.	12F<L	.	.
.	12G-X<	.	.
.	12E-<J	.	.
*Xped	*	*	*
.	.	.	.
4FF\ 4BBB-\)	12Dn<L	.	]
.	12F<	.	.
.	12An<J	.	.
4rEE	12c-X<L	.	.
.	12B-<	.	.
.	12b-J)	.	.
!!LO:LB:g=original
=257	=257	=257	=257
!	!LO:TX:t=P:rendering:slur:problem	!	!
.	(>8qF</	.	>
*ped	*	*	*
(<\2Dn 2BBBn\	(>12a-L)	.	.
.	12f	.	.
.	12dnJ	.	.
.	12G<L	.	.
.	12A-<	.	.
.	12F<J	.	.
*Xped	*	*	*
.	.	.	.
4GG\ 4CC\)	12En<L	.	.
.	12G<	.	.
.	12Bn<J	.	]
4r	12d-XL	.	.
.	12c	.	.
.	12ccJ)	.	.
=258	=258	=258	=258
*ped	*	*	*
4En:/ 4GG:/ 4CC:/	(12d#XL>	.	.
.	12en	.	.
.	12eenJ	.	.
!	!LO:TX:b:i:t=cresc. _:problem:dynamics with extention lines	!	!
!	!	!	!LO:HP:i:t=cresc.
4en:\ 4G:\ 4C:\	12f#XL	.	<
.	12g	.	.
.	12ggJ	.	.
4g:\ 4c:\ 4E:\	12bnL	.	.
.	12cc	.	.
.	12cccJ	.	.
*clefG2	*	*	*
4cc:/ 4en:/ 4G:/	12dd#XL	.	.
.	12ee	.	.
.	12eeenJ	.	.
=259	=259	=259	=259
*	*8va	*	*
4een:/ 4g:/ 4c:/	12ccccL	.	[
.	12ggg	.	.
.	12eeenJ	.	.
*	*X8va	*	*
!	!LO:TX:a:t=loco	!	!
4r	12cccL	.	.
.	12gg	.	.
.	12eenJ	.	.
4r	12ccL<	.	.
.	12g	.	.
.	12enJ	.	.
*clefF4	*	*	*
12rBB	12c<L	.	.
12rBB	12G<J)	.	.
*Xped	*	*	*
12C\	12rA<	.	.
!!LO:LB:g=original
=260	=260	=260	=260
*ped	*	*	*
!	!	!	!LO:DY:rj
(12FFL> 12FFF	(>2aa- 2a-	.	f>
12C	.	.	.
12A-J	.	.	.
12CL	.	.	.
12A-	.	.	.
*Xped	*	*	*
12CJ)	.	.	.
*ped	*	*	*
(12FFL<	8ggL 8g	.	.
12D-	.	.	.
.	8gg-X 8g-X	.	.
12A-J	.	.	.
12D-L	8ff 8f	.	.
12A-	.	.	.
.	8eenJ 8en	.	]
*Xped	*	*	*
12D-J)	.	.	.
=261	=261	=261	=261
*	*^	*	*
*ped	*	*tuplet	*	*
!	!	!LO:TUP:a	!	!
(12GGL	2ryy	12ee-XL> 12e-X	.	.
12D-	.	12ee-- 12e--	.	.
12B-J	.	12dd-J 12d-	.	.
12D-L	.	2dd-^</ 2d-/	.	.
12B-	.	.	.	.
*Xped	*	*	*	*
12D-J)	.	.	.	.
*ped	*	*	*	*
(12CCL>	2b-\ 2en\	.	.	.
12C	.	.	.	.
12B-J	.	.	.	.
12CL	.	[<4cc/ [<4c/)	.	.
12B-	.	.	.	.
*Xped	*	*	*	*
12CJ)	.	.	.	.
*	*v	*v	*	*
=262	=262	=262	=262
*ped	*	*	*
4FF/	4cc/] 4a-/ 4f/ 4c/]	.	.
(12a-L	(8cccL 8aa-	.	.
12f	.	.	.
.	8aaa-J 8fff)	.	.
*Xped	*	*	*
12cJ)	.	.	.
*ped	*	*	*
(12FL	(8fffL 8ddd-	.	.
12d-	.	.	.
.	8aa-J 8ff)	.	.
12fJ	.	.	.
12a-L	(8ffL 8dd-	.	.
12f	.	.	.
.	8ddd-J 8aa-)	.	.
12d-J)	.	.	.
*Xped	*	*	*
!!LO:PB:g=original
=263	=263	=263	=263
*ped	*	*	*
(12GL	(8bb-L 8gg	.	.
12d-	.	.	.
.	8ffJ 8b-)	.	.
12fJ	.	.	.
12gL	(8ffL 8bn	.	.
12f	.	.	.
.	8bbnJ 8gg)	.	.
*Xped	*	*	*
12d-J)	.	.	.
*ped	*	*	*
(12CL	(8cccL 8gg	.	.
12B-	.	.	.
.	8eenJ 8cc)	.	.
12cJ	.	.	.
12enL	(8ccL 8g	.	.
12c	.	.	.
.	8ggJ 8ee)	.	.
*Xped	*	*	*
12B-J)	.	.	.
=264	=264	=264	=264
*ped	*8va	*	*
(12AA-L> 12AAA-	(2cccc 2eee-X 2ccc	.	>
12E-	.	.	.
12A-J	.	.	.
*clefG2	*	*	*
12cL>	.	.	.
12e-	.	.	.
12a-J	.	.	.
12ccL>	8cccc-XL 8eee- 8ccc-X	.	.
12a-	.	.	.
.	8bbb-J 8eee- 8bb-	.	.
12e-J	.	.	.
*clefF4	*Xtuplet	*	*
12cL	12bbb--L 12eee- 12bb--	.	.
12A-	12aaa- 12aa-	.	.
*Xped	*	*	*
12E-J)	12gggJ 12gg	.	]]
*	*X8va	*	*
=265	=265	=265	=265
*	*^	*	*
*ped	*	*tuplet	*	*
!	!	!LO:TX:a:t=loco	!	!
!	!	!LO:TUP:a	!	!
(12BB-L	2ryy	12ggg-XL 12gg-X	.	.
12E-	.	12fff 12ff	.	.
12GJ	.	12fff-XJ 12ff-X	.	.
12d-L	.	2eee- 2ee-	.	.
12G	.	.	.	.
*Xped	*	*	*	*
12E-J)	.	.	.	.
*ped	*	*	*	*
(12EE-L>	2ggni	.	.	.
12E-	.	.	.	.
12GJ	.	.	.	.
12e-L	.	4ddd- 4dd-	.	.
12G	.	.	.	.
*Xped	*	*	*	*
12E-J)	.	.	.	.
*	*v	*v	*	*
!!LO:LB:g=original
=266	=266	=266	=266
*ped	*	*	*
4AA-'<	4ccc 4aa- 4cc)	.	.
(12cL	(8ee-L 8cc	.	.
12A-	.	.	.
.	8cccJ 8aa-)	.	.
*Xped	*	*	*
12E-J)	.	.	.
*ped	*	*	*
(>12FFL<	(8aa-L 8ff	.	.
12D-	.	.	.
.	8dd-J 8a-)	.	.
12A-J	.	.	.
12d-L	(8a-L 8f	.	.
12A-	.	.	.
.	8ffJ 8dd-)	.	.
*Xped	*	*	*
12D-J)	.	.	.
=267	=267	=267	=267
*ped	*	*	*
(12GGL>	(8ee-L> 8dd-	.	.
12D-	.	.	.
.	8b-J 8e-)	.	.
12E-J	.	.	.
12d-L	(8b-L> 8en	.	.
12E-X	.	.	.
.	8eenJ 8dd-)	.	.
*Xped	*	*	*
12BB-J)	.	.	.
*ped	*	*	*
(12EE-L>	(8ffL> 8dd-	.	.
12BB-	.	.	.
.	8b-J 8f)	.	.
12E-J	.	.	.
12GL	(8e-XL> 8d-	.	.
12E-	.	.	.
.	8bnJ 8g)	.	.
*Xped	*	*	*
12BB-XJ)	.	.	.
=268	=268	=268	=268
*ped	*	*	*
4AA- 4AAA-	(8ccL 8a-	.	.
.	8e-J 8c)	.	.
!	!LO:TX:b:i:t=cresc. _:problem:dynamics with extention lines	!	!
!	!	!	!LO:HP:i:t=cresc.
4A- 4E-	(8e-L 8c	.	<
*Xped	*	*	*
.	8ccJ 8a-)	.	.
*ped	*	*	*
4GG 4GGG	(8cc#XL 8an	.	.
.	8enJ 8c#X)	.	.
4An 4En	(8eL 8c#	.	.
*Xped	*	*	*
.	8cc#J 8a)	.	.
!!LO:LB:g=original
=269	=269	=269	=269
*ped	*	*	*
4FF#X 4FFF#X	(8ddnL 8a#X	.	.
.	8f#XJ 8en)	.	.
4A#X 4F#X 4C#X	(8f#L 8e	.	.
*Xped	*	*	*
.	8ddJ 8a#)	.	.
*ped	*	*	*
4BBn 4BBBn	(8dd#XL 8bn	.	.
.	8f#J 8d#X)	.	.
4Bn 4Fn 4BB	(8fnL 8e-X	.	.
*Xped	*	*	*
.	8ee-J 8an)	.	.
=270	=270	=270	=270
*ped	*	*	*
4BB-X 4BBB-X	(8ddnL 8b-X	.	.
.	8fJ 8dn)	.	.
4B- 4F	(8fL 8d	.	.
.	8ddJ 8b-)	.	.
*Xped	*	*	*
.	.	.	.
*ped	*	*	*
4AAn 4AAAn	(8dd#XL 8bn	.	.
.	8f#XJ 8d#X)	.	.
4Bn 4F#X 4D#X	(8f#L 8d#	.	.
*Xped	*	*	*
.	8dd#J 8b)	.	.
=271	=271	=271	=271
*ped	*	*	*
4AA-X 4AAA-X	(8eenL< 8cc	.	.
.	8a-J 8g-X)	.	.
4c 4A- 4E-X	(8a-L< 8g-	.	.
*Xped	*	*	*
.	8eeJ 8cc)	.	.
*ped	*	*	*
4D- 4DD-	(8ffL< 8dd-	.	.
.	8a-J 8f)	.	.
4d- 4G 4D-	(8gnL< 8f	.	.
*Xped	*	*	*
.	8ffJ 8bn)	.	.
!!LO:LB:g=original
=272	=272	=272	=272
*ped	*	*	*
4C 4CC	(8eenL> 8cc	.	.
.	8gJ 8en)	.	.
4c 4G 4En	(8gL> 8e	.	.
*Xped	*	*	*
.	.	.	.
.	8eeJ 8cc)	.	.
*ped	*	*	*
4C-X 4CC-X	(8ffL 8dd-	.	.
.	8a-J 8f)	.	.
4d- 4A- 4F	(8a-L 8f	.	.
*Xped	*	*	*
.	8ffJ 8dd-)	.	.
=273	=273	=273	=273
*ped	*	*	*
4BB- 4BBB-	(8ff#XL 8ddn	.	.
.	8b-J 8a-)	.	.
*Xped	*	*	*
.	.	.	.
4dn 4B- 4Fn	(8b-L 8a-	.	.
.	.	.	.
.	8ff#J 8dd)	.	.
*ped	*	*	*
4E- 4EE-	(8ggL 8ee-	.	.
.	8b-J 8g)	.	.
4e- 4B- 4G	(8b-L 8g	.	.
*Xped	*	*	*
.	8ggJ 8ee-)	.	.
=274	=274	=274	=274
*ped	*	*	*
4E- 4EE-	(8aa-L 8ff-X	.	.
.	8cc-XJ 8a-)	.	.
4f-X 4c- 4A-	(8cc-L 8a-	.	.
*Xped	*	*	*
.	8aa-J 8ff-)	.	.
*ped	*	*	*
4E- 4EE-	(8aanL 8ffn	.	.
.	8ccnJ 8ani)	.	.
4fn 4cn 4An	(8ccL 8a	.	.
*Xped	*	*	*
.	8aaJ 8ff)	.	.
!!LO:LB:g=original
=275	=275	=275	=275
*ped	*	*	*
4E- 4EE-	(8bb-L 8ff#X	.	.
.	8dd-J 8b-)	.	.
4f#X 4d- 4B-	(8dd-L 8b-	.	.
.	8bb-J 8ff#)	.	.
*Xped	*	*	*
.	.	.	.
*ped	*	*	*
4E- 4EE-	(8bbnL 8gg	.	.
.	8ee-J 8dd-)	.	.
4g 4e- 4B-X 4G	(8ee-L 8dd-	.	.
*Xped	*	*	*
.	8bbJ 8gg)	.	[[
=276	=276	=276	=276
*ped	*	*	*
4AA-'< 4AAA-	4ccc 4aa- 4ee- 4cc	.	ff
.	.	.	<
*Xped	*	*	*
(<8BnL 8BBn	(8ddnL> 8dn	.	.
8cJ 8C	8ee-J 8e-	.	.
8GL> 8GG	8ggL 8g	.	.
8A- 8AA-	8aa- 8a-	.	.
8E- 8EE-	8ccc 8cc	.	.
8CJ 8CC	8eee-J 8ee-	.	[
=277	=277	=277	=277
*ped	*	*	*
4AA-'< 4AAA-)	4aaa-'> 4aa-)	.	.
2c 2A- 2E- 2C	2ee-/ 2a-/ 2e-/	.	.
*Xped	*	*	*
8.e-L 8.A- 8.E-	(8.gg-XL 8.a- 8.g-X	.	.
16d-Jk 16A- 16D-	16ff-XJk 16a- 16f-X	.	.
=278	=278	=278	=278
8c 8A- 8C	8ee-'</ 8a-/ 8e-/)	.	.
8r	8r	.	.
(<8BnL 8BBn	(>8ddnL> 8dn	.	.
.	.	.	<
8cJ 8C	8ee-J 8e-	.	.
8GL> 8GG	8ggnL 8gn	.	.
8A- 8AA-	8aa- 8a-	.	.
8E- 8EE-	8ccc 8cc	.	.
8CJ 8CC	8eee-J 8ee-	.	[[
!!LO:PB:g=original
=279	=279	=279	=279
*ped	*	*	*
4EE-'< 4EEE-)	4cccc' 4ccc)	.	.
!	!	!	!LO:HP:a
2E-/ 2EE-/	(>2cc 2a- 2e- 2c	.	>
.	.	.	.
8.E-L> 8.EE-	8.ccL 8.g 8.d-	.	.
*Xped	*	*	*
16E-Jk 16EE-	16b-Jk 16g 16d-	.	]]
=280	=280	=280	=280
8E-/ 8AA-/	8cc'> 8a- 8c)	.	.
8r	8r	.	.
(<8BnL 8BBn	(8ddnL> 8dn	.	<
8cJ 8C	8ee-J 8e-	.	.
8GL> 8GG	8ggL 8g	.	.
8A- 8AA-	8aa- 8a-	.	.
8E- 8EE-	8ccc 8cc	.	.
8CJ 8CC	8eee-J 8ee-	.	[
=281	=281	=281	=281
*ped	*	*	*
4AA-'< 4AAA-)	4aaa-' 4aa-)	.	.
2c^> 2A- 2E- 2C	2ee-^>/ 2a-/ 2e-/	.	.
!	!LO:TUP:a	!	!
12e-L 12A- 12E-	(12gg-XL 12a- 12g-X	.	.
12.d- 12.A- 12.D-	12.ff-X 12.a- 12.f-X	.	.
24cJk 24A- 24C	24ee-Jk 24a- 24e-)	.	.
=282	=282	=282	=282
8c 8A- 8C	8ee-/ 8a-/ 8e-/	.	.
8r	8r	.	.
(<8BnL 8BBn	(>8ddnL> 8dn	.	<
8cJ 8C	8ee-J 8e-	.	.
8GL> 8GG	8ggL 8g	.	.
8A- 8AA-	8aa- 8a-	.	.
8E- 8EE-	8ccc 8cc	.	.
8CJ 8CC	8eee-J 8ee-	.	[
!!LO:LB:g=original
=283	=283	=283	=283
*ped	*	*	*
4EE-'< 4EEE-)	4cccc'> 4ccc)	.	>
2E- 2EE-	2cc 2a- 2e- 2c	.	.
8.E-L 8.EE-	8.ccL 8.g 8.d-	.	.
16E-Jk 16EE-	16b-Jk 16g 16d-	.	]
=284	=284	=284	=284
8E- 8AA-	8cc 8a- 8c	.	.
8r	8r	.	.
2E- 2EE-	2cc 2g 2d-	.	>
8.E-L 8.EE-	(>8.ccL 8.g 8.d-	.	.
16E-Jk 16EE-	16b-Jk 16g 16d-	.	]]
=285	=285	=285	=285
8E- 8AA-	8cc'> 8a- 8c)	.	.
8r	8r	.	.
.	.	.	>
2E- 2EE-	(>2cc 2g 2d-	.	.
(8.E-L 8.EE-	8.ccL 8.g 8.d-	.	.
.	.	.	]
16E-Jk 16EE-	16b-Jk 16g 16d-	.	.
=286	=286	=286	=286
*ped	*	*	*
8En 8EEn)	8cc'> 8b- 8g 8c)	.	.
8r	8r	.	.
!	!LO:TX:t=P:diminuendolike accent:problem	!	!
[2.en [2.c [>2.G [<2.E	([2.ccc^< 2.bb- [<2.gg [<2.cc	.	.
=287	=287	=287	=287
4enX] 4c] 4G] 4EnX]	4ccc] 4bb-) 4gg] 4cc]	.	.
.	.	.	<
8e'L 8c 8G 8Eny	8ccc'L 8bb- 8gg 8cc	.	.
8e'J 8c 8G 8E	8ccc'J 8bb- 8gg 8cc	.	.
8e'L 8c 8G 8E	8ccc'L 8bb- 8gg 8cc	.	.
8e' 8c 8G 8E	8ccc' 8bb- 8gg 8cc	.	.
8e' 8c 8G 8E	8ccc' 8bb- 8gg 8cc	.	.
8e'J 8c 8G 8E	8ccc'J 8bb- 8gg 8cc	.	.
!!LO:LB:g=original
=288	=288	=288	=288
4en' 4c 4G 4En	4ccc' 4bb- 4gg 4cc	.	[[
*Xped	*	*	*
4r	4r	.	<
.	.	.	.
*ped	*	*	*
2en 2c#X 2An 2G 2E	2ccc#X 2aan 2gg 2cc#X	.	[[
=289	=289	=289	=289
4AAn\ 4AAAn\	4an 4An<	.	>
.	.	.	]
8en'L 8c#X 8An 8G 8Eni	8ccc#X'L 8aan 8gg 8cc#X	.	<
8e'J 8c# 8A 8G 8E	8ccc#'J 8aa 8gg 8cc#	.	.
8e'L 8c# 8A 8G 8E	8ccc#'L 8aa 8gg 8cc#	.	.
8e' 8c# 8A 8G 8E	8ccc#' 8aa 8gg 8cc#	.	.
8e' 8c# 8A 8G 8E	8ccc#' 8aa 8gg 8cc#	.	.
8e'J 8c# 8A 8G 8E	8ccc#'J 8aa 8gg 8cc#	.	.
=290	=290	=290	=290
4en'> 4c#X 4An 4G 4En	4ccc#X'> 4aan 4gg 4cc#X	.	[[
4r	4r	.	.
*Xped	*	*	*
!	!LO:TX:b:i:t=stretto	!	!
2e 2c# 2A 2G 2E	2ccc#^< 2aa 2gg 2cc#	.	.
=291	=291	=291	=291
*ped	*	*	*
2en 2d-X 2B- 2G 2En	2ddd-X^< 2bb- 2gg 2dd-X	.	.
*Xped	*	*	*
.	.	.	.
*ped	*	*	*
2f 2d- 2B- 2F	2ddd-^< 2bb- 2ff 2dd-	.	.
*Xped	*	*	*
=292	=292	=292	=292
*ped	*	*	*
2g 2e- 2B- 2G	2ddd-^< 2bb- 2ee- 2dd-	.	.
*Xped	*	*	*
.	.	.	.
*ped	*	*	*
2a- 2e- 2A-	2ccc^< 2aa- 2ee- 2cc	.	.
*Xped	*	*	*
=293	=293	=293	=293
*ped	*	*	*
2a-: 2d-: 2B-: 2E-:	2fff^< 2aa- 2ff	.	.
*Xped	*	*	*
.	.	.	.
*ped	*	*	*
2E-\ 2EE-\	(>2g^ 2e- 2d- 2G<	.	.
*Xped	*	*	*
!!LO:LB:g=original
=294	=294	=294	=294
*	*^	*	*
!	!LO:TX:b:i:t=sempre forte	!	!	!
4AA-'<\ 4AAA-\	4a- 4c 4A-)	4ryy	.	.
!	!LO:TX:a:i:t=pi mosso	!	!	!
4BB-'<\ 4BBB-\	(>2e-	4d-< 4G<	.	.
4C'<\ 4CC\	.	4c< 4A-<	.	.
4FF'<\ 4FFF\	4cc	4a- 4d-	.	.
=295	=295	=295	=295	=295
4GG'</ 4GGG/	4b-	4e- 4d-	.	.
4F'<\ 4FF\	4a-	4d-< 4A-<	.	.
4E-'<\ 4EE-\	4g	4e-< 4B-<	.	.
4D-'<\ 4DD-\	8fL	4G<	.	.
.	8gJ	.	.	.
=296	=296	=296	=296	=296
4C'<\ 4CC\	8f	4A-<	.	.
.	[4.e-^>	.	.	.
4BB-'<\ 4BBB-\	.	4d-< 4G<	.	.
4AA-'<\ 4AAA-\	4e-])	4c< 4A-<	.	.
4FF'<\ 4FFF\	4cc	(>4a- 4d-	.	.
=297	=297	=297	=297	=297
4GG'<\ 4GGG\	4b-	4e- 4d-	.	.
4F'<\ 4FF\	4a-	4d-< 4A-<	.	.
4E-'<\ 4EE-\	4g	4e-< 4B-<	.	.
4D-'<\ 4DD-\	8a-L 8f	4B-<	.	.
.	8b-J 8g	.	.	.
=298	=298	=298	=298	=298
4D-'<\ 4DD-\	4e-	4B-<	.	.
4C'<\ 4CC\	8fL	4A-<	.	.
.	8e-J	.	.	.
4C'<\ 4CC\	4a-	4e-< 4A-<	.	.
4GG'< 4GGG	4b-	4e- 4B-	.	.
=299	=299	=299	=299	=299
4AA-'< 4AAA-	4cc	4e- 4c	.	.
4EE-'< 4EEE-	2cc^>	4g 4c	.	.
4FF'< 4FFF	.	4a- 4c	.	.
4CC'< 4CCC	[4cc^>	4g 4e-	.	.
!!LO:PB:g=original
=300	=300	=300	=300	=300
4DD-'< 4DDD-	4cc]	4f 4d-	.	.
4D-'< 4DD-	4b-	4f 4d-	.	.
4E-'</ 4EE-/	4cc	4g 4c	.	.
4F'< 4FF	4f	4d-< 4A-<	.	.
=301	=301	=301	=301	=301
4C'<\ 4CC\	4a-	4e-< 4A-<	.	.
4D-'<\ 4DD-\	2a-^>	4f< 4A-<	.	.
4BB-'<\ 4BBB-\	.	4d-< 4A-<	.	.
4E-'<\ 4EE-\	4g)	4e- 4B-	.	.
=302	=302	=302	=302	=302
4A-'> 4AA-	(>4e- 4c	4ryy	.	.
!	!LO:TX:b:i:t=cresc. _:problem:dynamics with extention lines	!	!	!
!	!	!	!	!LO:HP:i:t=cresc.
4B-'> 4BB-	2ee-^>	4dd- 4g 4e-	.	<
4c'> 4C	.	4cc 4a- 4e-	.	.
4F'</ 4FF/	4ryy	4ccc 4aa- 4dd-	.	.
=303	=303	=303	=303	=303
4G'>\ 4GG\	2.ryy	4bb- 4ee- 4dd-	.	.
4f'> 4F	.	4aa- 4dd- 4a-	.	.
4e-'> 4E-	.	4gg 4ee- 4b-	.	.
4d-'> 4D-	8ffL	4b- 4g	.	.
.	8ggJ	.	.	.
=304	=304	=304	=304	=304
4c'> 4C	8ff	4a-	.	.
.	[4.ee-^>	.	.	.
4B-'> 4BB-	.	4dd- 4g 4e-	.	.
4A-'> 4AA-	(>4ee-])	4cc 4a- 4e-	.	.
4F'>\ 4FF\	4ryy	4ccc 4aa- 4dd-	.	.
*	*v	*v	*	*
=305	=305	=305	=305
4G'>\ 4GG\	4bb- 4ee- 4dd-	.	.
4f'> 4F	4aa- 4dd- 4a-	.	.
4e-'> 4E-	4gg 4ee- 4b- 4g	.	.
4d-'> 4D-	8aa-L 8ff 8a-	.	.
.	8bb-J 8gg 8b-	.	.
!!LO:LB:g=original
=306	=306	=306	=306
*	*^	*	*
4d-'> 4D-	4ryy	4ee-/ 4b-/ 4e-/)	.	.
!	!LO:TX:a:i:t=sempre\ pi\ mosso_:dur=19q:ext=ud:ext2=s:problem:text with extention lines	!	!	!
!	!LO:TX:t=P:4a- before 8ff 8f:problem	!	!	!
4c'> 4C	4a-	8ffL 8f	.	.
.	.	8ee-J 8e-	.	.
4c'> 4C	2ryy	4aa- 4ee- 4a-	.	.
4G'>\ 4GG\	.	4bb- 4ee- 4b-	.	.
=307	=307	=307	=307	=307
4A-'> 4AA-	4ryy	4ccc 4aa- 4ee- 4cc	.	.
4E-'</ 4EE-/	2ccc	4gg 4cc	.	.
4F'</ 4FF/	.	4aa- 4cc	.	.
4C'</ 4CC/	[4ccc	4gg 4ee-	.	.
=308	=308	=308	=308	=308
4D-'</ 4DD-/	4ccc]	4ff 4dd-	.	.
4d-'> 4D-	2.ryy	4bb- 4ff 4dd-	.	.
4e-'> 4E-	.	4ccc 4gg 4cc	.	.
4f'> 4F	.	4ff 4dd- 4a-	.	.
=309	=309	=309	=309	=309
4c'> 4C	4ryy	4aa- 4ee- 4a-	.	.
4d-'> 4D-	2aa-	4ff 4a-	.	.
4B-'> 4BB-	.	4dd- 4a-	.	.
4e-'> 4E-	4gg	4ee- 4b- 4g	.	[
*	*v	*v	*	*
=310	=310	=310	=310
*	*	*	*^
*ped	*	*	*	*
!LO:TX:t=P:fz is below ff:problem	!	!	!LO:DY:rj	!LO:DY:rj
8DDn'< 8DDDn	8gg#X'> 8een 8bn 8g#X	.	fz	ff
8r	8r	.	.	.
*	*Xtuplet	*	*	*
4rCC	(>12BBn<L	.	.	.
.	12En<	.	.	.
.	12An<J	.	.	.
2rGG	12G#X<L	.	.	.
.	12F#X<	.	.	.
.	12E<J	.	.	.
.	12Bn<L	.	.	.
.	12en	.	.	.
.	12anJ	.	.	.
*	*	*	*v	*v
!!LO:LB:g=original
=311	=311	=311	=311
*^	*	*	*
!	!LO:N:n=1:acc=n#	!LO:TX:t=P:diminuendolike accent:problem	!	!
2ryy	4Bn^> 4G#y 4En 4Dn	12g#XL	.	.
.	.	12f#X	.	.
.	.	12enJ	.	.
.	4r	12bnL	.	.
.	.	12een	.	.
.	.	12aanJ	.	.
*clefG2	*	*	*	*
!LO:TX:t=P:diminuendolike accent:problem	!	!	!	!
(4.bn^>/	2g#X\ 2en\ 2dn\	12gg#XL	.	.
.	.	12ff#X	.	.
.	.	12eeJ	.	.
.	.	12bbnL	.	.
.	.	12eeen	.	.
8cc#X/	.	.	.	.
.	.	12aaanJ	.	.
*v	*v	*	*	*
=312	=312	=312	=312
8bn/ 8g#X/ 8en/ 8dn/)	8ggg#X'>)	.	.
8r	8r	.	.
*clefF4	*	*	*
4rCC	(>12BBn<L	.	.
.	12En<	.	.
.	12An<J	.	.
4DDn^>\ 4DDDn\	12G#X<L	.	.
.	12F#X<	.	.
.	12E<J	.	.
4rFF	12Bn<L	.	.
.	12en	.	.
.	12anJ	.	.
!!LO:LB:g=original
=313	=313	=313	=313
*^	*	*	*
!	!	!LO:TX:t=P:diminuendolike accent:problem	!	!
2ryy	4Bn^> 4G#X 4En 4Dn	12g#XL	.	.
.	.	12f#X	.	.
.	.	12enJ	.	.
.	4r	12bnL	.	.
.	.	12een	.	.
.	.	12aanJ	.	.
*clefG2	*	*	*	*
!LO:TX:t=P:diminuendolike accent:problem	!	!	!	!
(4.bn^>/	2g#X\ 2en\ 2dn\	12gg#XL	.	.
.	.	12ff#X	.	.
.	.	12eeJ	.	.
.	.	12bbnL	.	.
.	.	12eeen	.	.
8cc#X/	.	.	.	.
*Xped	*	*	*	*
.	.	12aaanJ	.	.
*v	*v	*	*	*
=314	=314	=314	=314
*ped	*	*	*
8bn/ 8g#X/ 8e#/ 8dn/)	8ggg#X)	.	.
8r	8r	.	.
*clefF4	*	*	*
4rCC	(>12BBn<L	.	.
.	12E#<	.	.
.	12An<J	.	.
4DDn^>\ 4DDDn\	12G#X<L	.	.
.	12F#X<	.	.
.	12E#<J	.	.
4rCC	12Bn<L	.	.
.	12e#	.	.
.	12anJ	.	.
!!LO:PB:g=original
=315	=315	=315	=315
*^	*	*	*
!	!LO:TX:t=P:diminuendolike accent:problem	!	!	!
2ryy	4Bn^> 4G#X 4E#X 4Dn	12g#XL	.	.
.	.	12f#X	.	.
.	.	12e#XJ	.	.
.	4r	12bnL	.	.
.	.	12ee#X	.	.
.	.	12aanJ	.	.
*clefG2	*	*	*	*
!LO:TX:t=P:diminuendolike accent:problem	!	!	!	!
(4.bn^>	2g#X 2e#X 2dn	12gg#XL	.	.
.	.	12ff#X	.	.
.	.	12ee#XJ	.	.
.	.	12bbnL	.	.
.	.	12eee#X	.	.
8cc#X	.	.	.	.
.	.	12aaanJ	.	.
*v	*v	*	*	*
=316	=316	=316	=316
*	*^	*	*
2bn^>/ 2fn/ 2dn/)	4aaa-^>	12dddnL	.	.
.	.	12ddd-X	.	.
.	.	12cccJ	.	.
.	4ryy	12bbnL	.	.
.	.	12bb-X	.	.
.	.	12aanJ	.	.
(<12bnL>	4dddny^>	12aa-XL	.	.
12b-X	.	12gg	.	.
12anJ	.	12gg-XJ	.	.
12a-XL>	4ryy	12ffL	.	.
12g	.	12een	.	.
12g-XJ	.	12ee-XJ	.	.
!!LO:LB:g=original
=317	=317	=317	=317	=317
12fL>	4aa-^>	12ddnL	.	.
12en	.	12dd-X	.	.
12e-XJ	.	12ccJ	.	.
*clefF4	*	*	*	*
12dnL	4ryy	12bnL<	.	.
12d-X	.	12b-X	.	.
12cJ	.	12anJ	.	.
12BnL	4ddni^>	12a-XL	.	.
12B-X	.	12g	.	.
12AnJ	.	12g-XJ	.	.
12A-XL	4ryy	12fL<	.	.
12G	.	12en	.	.
12G-XJ	.	12e-XJ	.	.
=318	=318	=318	=318	=318
12FL	4a-^>	12dnL	.	.
12En	.	12d-X	.	.
12E-XJ	.	12cJ	.	.
12DnL<	4ryy	12Bn<L	.	.
12D-X	.	12B-X<	.	.
12CJ	.	12An<J	.	.
12BBnL<	4dn	12A-X<L	.	.
12BB-X	.	12G<	.	.
12AAnJ	.	12G-X<J	.	.
12AA-XL<	4ryy	12F<L	.	.
12GGn	.	12En<	.	.
12GG-XJ	.	12E-X<J	.	.
*	*v	*v	*	*
=319	=319	=319	=319
*	*^	*	*
2FF 2FFF)	(>[2Bn^>)	1A-< 1Dn<	.	<
2FF-X 2FFF-X	4.B]	.	.	.
.	8c	.	.	[[
*	*v	*v	*	*
!!LO:LB:g=original
=320||	=320||	=320||	=320||
!!!OMD: Adagio. | sostenuto
*M3/4	*M3/4	*	*
*	*	*	*
!	!LO:TX:t=P:rendering:slur:problem	!	!
.	(>8qC</	.	.
*ped	*	*	*
!	!LO:S:s=1:note:problem:note-level slur	!	!
4EE-\ 4EEE-\	4e-) 4A-< 4C<	.	.
4EE-\ 4EEE-\	4c< 4A-< 4E-<)	.	.
8r	8r	.	.
8E-/ 8EE-/	(>8e- 8c 8A-	.	.
=321	=321	=321	=321
*	*^	*	*^
!	!	!LO:TX:t=P:ligatures from 2c< and 2A-<:problem	!	!	!
[>\2E- [2EE-\	4a-	[>2c< [>2A-<	.	>	.
.	8gL	.	.	.	.
.	8fJ	.	.	.	.
8E-] 8EE-]	8e- 8c<] 8A-<])	8ryy	.	]	.
*Xped	*	*	*	*	*
.	.	.	.	.	.
8r;	16r	8ryy	.	]	.
*	*Xtuplet	*	*	*	*
*	*cue	*	*	*	*
!	!	!	!	!LO:DY:rj	!
.	(12cL	.	.	pp<	.
16ryy	.	16ryy	.	.	.
.	12e-	.	.	.	.
16ryy	.	16ryy	.	.	.
.	12ccJ	.	.	.	.
16ryy	.	16yy	.	.	.
2ryy	2b-/	2ryy	.	.	.
.	.	.	.	[>	.
4ryy	4a-/)	4ryy	.	.	.
8ryy	8r;	8ryy	.	]	.
!	!	!	!	!LO:HP:vg=1	!
4ryy	(12cL	4ryy	.	<	.
.	12e-	.	.	.	<
.	12ee-J	.	.	.	.
2ryy	2dd-/	2ryy	.	.	.
.	.	.	.	[>	.
4ryy	4cc/)	4ryy	.	.	.
8ryy	8r;	8ryy	.	]	.
!	!LO:TX:b:i:t=smorz._:dur=4q:ext=ud:problem:text with extention lines	!	!	!	!
4ryy	(>12e-L	4ryy	.	<	.
.	12a-	.	.	.	.
.	12ccJ	.	.	.	.
4ryy	4gg\	4ryy	.	.	.
2ryy	4ff\	2ryy	.	.	.
.	4ee-\)	.	.	[	.
4ryy	4rr;	4ryy	.	.	.
*	*Xcue	*	*	*	*
2E- 2EE-	&(>[2d-<^> [2G<	2ryy	.	.	.
*v	*v	*	*	*	*
*	*	*	*v	*v
=322||	=322||	=322||	=322||
!!!OMD: All|o. assai.
*M2/2	*M2/2	*	*
*met(c|)	*met(c|)	*	*
*	*^	*	*
*	*	*^	*	*
*ped	*	*	*	*	*
!	!LO:TX:t=P:rendering:slur above the the upper staff:problem	!	!	!	!LO:DY:rj:b=2
(<12AAA-L<	(>4.d-<]	[>4G</]	4ryy	.	.
12EE-	.	.	.	.	.
12AA-J	.	.	.	.	.
12E-L<	.	12G<L]	12ryy	.	.
12AA-	.	12A-<	12ryy	.	.
.	8ryy	.	.	.	.
12EE-J	.	12d-<J	12d-<\&)	.	.
12AAA-L<	4ryy	12c<L	4c<\	.	.
12EE-	.	12B-<	.	.	.
12AA-J	.	12E-<J	.	.	.
12E-L<	4ryy	12A-<L>	4ryy	.	.
12AA-	.	12c	.	.	.
12EE-J	.	12fJ	.	.	.
*	*	*v	*v	*	*
*	*v	*v	*	*
!!LO:LB:g=original
=323	=323	=323	=323
12AAA-L>	12e-L>	.	.
!	!LO:TX:b:i:t=cresc. _:problem:dynamics with extention lines	!	!
!	!	!	!LO:HP:i:t=cresc.
12EE-	12c	.	<
12AA-	12A-J	.	.
12E-	12cL	.	.
12AA-	12e-	.	.
12EE-J	12b-J	.	.
12AAA-L>	12a-L	.	.
12EE-	12e-	.	.
12AA-	12cJ	.	.
12E-	12e-L	.	.
12AA-	12a-	.	.
12EE-J	12dd-J	.	.
=324	=324	=324	=324
12AAA-L>	12ccL	.	.
12EE-	12a-	.	.
12AA-	12e-J	.	.
12E-	12a-L	.	.
12AA-	12cc	.	.
12EE-J	12ffJ	.	.
12AAA-L>	12ee-L	.	.
12EE-	12cc	.	.
12AA-	12a-J	.	.
12E-	12ccL	.	.
12AA-	12ee-	.	.
12EE-J	12bb-J	.	.
=325	=325	=325	=325
12AAA-L>	12aa-L	.	.
12EE-	12ee-	.	.
12AA-	12ccJ	.	.
12E-	12ee-L	.	.
12AA-	12aa-	.	.
12EE-J	12ddd-J	.	.
12AAA-L>	12cccL	.	.
12EE-	12aa-	.	.
12AA-	12ee-J	.	.
12E-	12aa-L	.	.
12AA-	12ccc	.	.
12EE-J	12fffJ	.	.
=326	=326	=326	=326
*	*8va	*	*
12AAA-L>	12eee-L	.	.
12EE-	12ccc	.	.
12AA-	12aa-J	.	.
12E-	12cccL	.	.
12AA-	12eee-	.	.
12EE-J	12bbb-J	.	.
12AAA-L>	12aaa-L	.	.
12EE-	12eee-	.	.
12AA-	12cccJ	.	.
12E-	12eee-L	.	.
12AA-	12aaa-	.	.
!	!LO:TX:t=P:slur ends after the note:problem	!	!
12EE-J	12dddd-J)	.	.
!!LO:LB:g=original
=327	=327	=327	=327
12AAA-L>	12ccccL	.	[
12EE-	12aaa-	.	.
12AA-	12eee-J	.	.
!	!LO:TX:b:i:t=dim. _:problem:dynamics with extention lines	!	!
!	!	!	!LO:HP:i:t=dim.
12E-	12aaa-L	.	>
12AA-	12cccc	.	.
12EE-J	12ffffJ	.	.
12AAA-L>	12eeee-L	.	.
12EE-	12cccc	.	.
12AA-	12aaa-J	.	.
12E-	12ccccL	.	.
12AA-	12eeee-	.	.
12EE-J	12ffffJ	.	.
=328	=328	=328	=328
12AAA-L>	12eeee-L	.	.
12EE-	12cccc	.	.
12AA-	12aaa-J	.	.
12E-	12ccccL	.	.
12AA-	12eeee-	.	.
12EE-J	12ffffJ	.	.
12AAA-L>	12eeee-L	.	.
12EE-	12cccc	.	.
12AA-	12aaa-J	.	.
12E-	12ccccL	.	.
12AA-	12eeee-	.	.
12EE-J	12ffffJ	.	.
=329	=329	=329	=329
12AAA-L>	12eeee-L	.	.
12EE-	12cccc	.	.
12AA-	12aaa-J	.	.
12E-	12ccccL	.	.
12AA-	12eeee-	.	.
12EE-J	12ffffJ	.	.
12AAA-L>	12eeee-L	.	.
12EE-	12cccc	.	.
12AA-	12aaa-J	.	.
12E-	12ccccL	.	.
12AA-	12eeee-	.	.
12EE-J	12ffffJ	.	.
=330	=330	=330	=330
4AAA-/)	4eeee-	.	.
*	*X8va	*	*
!	!LO:TX:a:t=loco	!	!
4rC	4r	.	.
*Xped	*	*	*
2rE	2r	.	]]
=331	=331	=331	=331
*ped	*	*	*
1D- 1DD-	1a- 1f-X 1d- 1A-<	.	ff
*Xped	*	*	*
=332	=332	=332	=332
*ped	*	*	*
!	!LO:TX:b:B:t=Fine.	!	!
1AA-;> 1AAA-	1aa-; 1ee- 1cc 1a-	.	.
==	==	==	==
*-	*-	*-	*-
!!!system-decoration: s1,s2
!!!RDF**kern: > = above
!!!RDF**kern: < = below
!!!system-decoration: {(s1,s2)}
!!title: @{OTL}; @{OPS} @{ONM} publisher: @{OCL}
!!!RDF**kern: N = linked
!!!RDF**dynam: > = "dim.", fontstyle = "normal"
!!!RDF**dynam: < = "cresc.", fontstyle = "italic"
!!!RDF**kern: i = editorial accidental
!!!ENC: Emilia Zitek
!!!END: 2020-12-18